!!!!SEGMENT: pl-stab--11a--004_rodowski-aleksander--litania-de-b-m-v-regina-angelorum.krn
!!!cenid: 18xx:3401
!!!COM: Rodowski, Aleksander
!!!COM-rismid: pe30009627
!!!CDT: <1790->1810
!!!CNT: Polish
!!!OPR: Litania de B.M.V
!!!OTL: Regina angelorum
!!!OMV: 004
!!!PDT: 1801
!!!AGN:
!!!SMS-siglum: PL-STAb
!!!SMS-shelfmark: 11a
!!!SMS-shelfwork: M
!!!SMS-variant: Canto PL-STAb 11a:3-5; Baſso PL-STAb 11a:18-20
!!!SMS-altvar: Canto PL-STAb 11a: 6-8; 9-12; Baſso PL-STAb 11a:21-23
!!!NIFC-rismid: 301050677
!!!URL-scan: https://repozytorium.nifc.pl/islandora/object/pl-stab%3A2413/datastream/PDF/view
!!!ONB-nifc: UWAGA: części Litanii: 1. Introdukcia, 2. Kyrie, 3. Rosa mistica, 4. Regina angelorum, 5. Agnus Dei, 6. Christe audi nos
!!!key: D
**kern	**fba	**dynam	**kern	**dynam	**kern	**dynam	**kern	**text	**kern	**text	**kern	**text	**kern	**text	**kern	**kern
*part9	*	*part9	*part8	*part8	*part7	*part7	*part6	*part6	*part5	*part5	*part4	*part4	*part3	*part3	*part2	*part1
*group4	*	*	*group3	*	*group3	*	*group2	*	*group2	*	*group2	*	*group2	*	*group1	*group1
*staff9	*	*	*staff8	*	*staff7	*	*staff6	*staff6	*staff5	*staff5	*staff4	*staff4	*staff3	*staff3	*staff2	*staff1
*I"Organo	*	*	*I"Violino 2do	*	*I"Violino Primo	*	*I"Baſso	*	*I"Tenore	*	*I"Alto	*	*I"Canto	*	*I"Cornu Secudno	*I"Cornu Primo
*I'org	*	*	*I'vl 2	*	*I'vl 1	*	*I'B	*	*I'T	*	*I'A	*	*I'S	*	*I'cor 2	*I'cor 1
*Iorgan	*	*	*Ivioln	*	*Ivioln	*	*Ibass	*	*Itenor	*	*Ialto	*	*Isoprn	*	*Icor	*Icor
*ICklav	*	*	*ICstr	*	*ICstr	*	*ICvox	*	*ICvox	*	*ICvox	*	*ICvox	*	*ICbras	*ICbras
*clefF4	*	*	*clefG2	*	*clefG2	*	*clefF4	*	*clefC4	*	*clefC3	*	*clefC1	*	*clefG2	*clefG2
*	*	*	*	*	*	*	*	*	*	*	*	*	*	*	*ITrd-1c-2	*ITrd-1c-2
*k[f#c#]	*	*	*k[f#c#]	*	*k[f#c#]	*	*k[f#c#]	*	*k[c#f#]	*	*k[f#c#]	*	*k[c#f#]	*	*k[f#c#]	*k[f#c#]
*D:	*	*	*D:	*	*D:	*	*D:	*	*D:	*	*D:	*	*D:	*	*D:	*D:
*M4/4	*	*	*M4/4	*	*M4/4	*	*M4/4	*	*M4/4	*	*M4/4	*	*M4/4	*	*M4/4	*M4/4
*met(c)	*	*	*met(c)	*	*met(c)	*	*met(c)	*	*met(c)	*	*met(c)	*	*met(c)	*	*met(c)	*met(c)
=1	=1	=1	=1	=1	=1	=1	=1	=1	=1	=1	=1	=1	=1	=1	=1	=1
*2\right	*2\right	*2\right	*2\right	*2\right	*2\right	*2\right	*2\right	*2\right	*2\right	*2\right	*2\right	*2\right	*2\right	*2\right	*2\right	*2\right
*	*	*	*	*	*	*below	*	*	*	*	*	*	*	*	*	*
!LO:TX:a:B:t=Allegro	!	!LO:DY:t=for	!LO:TX:a:B:t=Allegro	!LO:DY:rj:t=for.	!LO:TX:a:B:t=Allegro	!LO:DY:rj:t=for.	!	!	!LO:TX:a:B:t=Allegro	!	!LO:TX:a:B:t=Allegro	!	!LO:TX:t=P:problem:znaki: cc# zamiast c#	!	!LO:TX:a:t=in D&colon;	!LO:TX:a:t=in D&colon;
4D\	.	f	4d/	f	4d/	f	4D\	Re-	4d\	Re-	4d\	Re-	4dd\	Re-	4d/	4dd\
8F#\L	.	.	8.f#/L	.	8.f#/L	.	8F#\L	-gi-	8f#\L	-gi-	8f#\L	-gi-	8ff#\L	-gi-	8f#/L	8ff#\L
8D\J	.	.	.	.	.	.	8D\J	.	8d\J	.	8d\J	.	8dd\J	.	8d/J	8dd\J
.	.	.	16d/Jk	.	16d/Jk	.	.	.	.	.	.	.	.	.	.	.
4A\	.	.	4a/	.	4a/	.	4A\	-na	4a\	-na	4a\	-na	4aa\	-na	4a/	4aa\
4r	.	.	4r	.	8r	.	4r	.	4r	.	4r	.	4r	.	4r	4r
!	!	!	!	!	!	!LO:DY:t=p.	!	!	!	!	!	!	!	!	!	!
.	.	.	.	.	8ff#\	p	.	.	.	.	.	.	.	.	.	.
=2	=2	=2	=2	=2	=2	=2	=2	=2	=2	=2	=2	=2	=2	=2	=2	=2
!	!	!	!	!LO:DY:rj:t=p.	!	!	!	!	!	!	!	!	!	!	!	!
4r	.	.	16e/LL	p	8gg\L	.	4r	.	4r	.	4r	.	8gg\	an-	4r	4r
.	.	.	16a/	.	.	.	.	.	.	.	.	.	.	.	.	.
.	.	.	16g/	.	8ee\	.	.	.	.	.	.	.	8ee\	-ge-	.	.
.	.	.	16a/JJ	.	.	.	.	.	.	.	.	.	.	.	.	.
*	*	*	*rep	*	*	*	*	*	*	*	*	*	*	*	*	*
8r	.	.	16e/LL	.	8b\	.	8r	.	8r	.	8r	.	8b\L	-lo-	8r	8r
.	.	.	16a/	.	.	.	.	.	.	.	.	.	.	.	.	.
8A\	.	.	16g/	.	8cc#\J	.	8A\	O-	8e\	O-	8g\	O-	8cc#\J	.	8ee\	8gg\
.	.	.	16a/JJ	.	.	.	.	.	.	.	.	.	.	.	.	.
*	*	*	*Xrep	*	*	*	*	*	*	*	*	*	*	*	*	*
4D/	.	.	16d/LL	.	4.dd\	.	4d\	-ra	4f#\	-ra	4a\	-ra	8dd\	-rum	4dd\	4ff#\
.	.	.	16a/	.	.	.	.	.	.	.	.	.	.	.	.	.
.	.	.	16f#/	.	.	.	.	.	.	.	.	.	8r	.	.	.
.	.	.	16a/JJ	.	.	.	.	.	.	.	.	.	.	.	.	.
*	*	*	*rep	*	*	*	*	*	*	*	*	*	*	*	*	*
4r	.	.	16d/LL	.	.	.	4r	.	4r	.	4r	.	8r	.	4r	4r
.	.	.	16a/	.	.	.	.	.	.	.	.	.	.	.	.	.
.	.	.	16f#/	.	16ee\LL	.	.	.	.	.	.	.	8ff#\	Pa-	.	.
.	.	.	16a/JJ	.	16ff#\JJ	.	.	.	.	.	.	.	.	.	.	.
*	*	*	*Xrep	*	*	*	*	*	*	*	*	*	*	*	*	*
!	!	!	!	!	!	!	!	!	!	!	!LO:LB:g=original	!	!	!	!	!
=3	=3	=3	=3	=3	=3	=3	=3	=3	=3	=3	=3	=3	=3	=3	=3	=3
4r	.	.	16e/LL	.	8gg\L	.	4r	.	4r	.	4r	.	8gg\	-tri-	4r	4r
.	.	.	16a/	.	.	.	.	.	.	.	.	.	.	.	.	.
.	.	.	16g/	.	8ee\	.	.	.	.	.	.	.	8ee\	-ar-	.	.
.	.	.	16a/JJ	.	.	.	.	.	.	.	.	.	.	.	.	.
*	*	*	*rep	*	*	*	*	*	*	*	*	*	*	*	*	*
8r	.	.	16e/LL	.	8b\	.	8r	.	8r	.	8r	.	8b\L	-cha-	8r	8r
.	.	.	16a/	.	.	.	.	.	.	.	.	.	.	.	.	.
*	*	*	*	*	*	*	*	*ij	*	*ij	*	*	*	*	*	*
8A\	.	.	16g/	.	8cc#\J	.	8A\	O-	8e\	O-	8g\	O-	8cc#\J	.	8ee\	8gg\
.	.	.	16a/JJ	.	.	.	.	.	.	.	.	.	.	.	.	.
*	*	*	*Xrep	*	*	*	*	*	*	*	*	*	*	*	*	*
4D/	.	.	16d/LL	.	4.dd\	.	4d\	-ra	4f#\	-ra	4a\	-ra	4dd\	-rum	4dd\	4ff#\
*	*	*	*	*	*	*	*	*Xij	*	*Xij	*	*	*	*	*	*
.	.	.	16a/	.	.	.	.	.	.	.	.	.	.	.	.	.
.	.	.	16f#/	.	.	.	.	.	.	.	.	.	.	.	.	.
.	.	.	16a/JJ	.	.	.	.	.	.	.	.	.	.	.	.	.
*	*	*	*rep	*	*	*	*	*	*	*	*	*	*	*	*	*
4r	.	.	16d/LL	.	.	.	4r	.	4r	.	4r	.	4r	.	4r	4r
.	.	.	16a/	.	.	.	.	.	.	.	.	.	.	.	.	.
.	.	.	16f#/	.	16ee\LL	.	.	.	.	.	.	.	.	.	.	.
.	.	.	16a/JJ	.	16ff#\JJ	.	.	.	.	.	.	.	.	.	.	.
*	*	*	*Xrep	*	*	*	*	*	*	*	*	*	*	*	*	*
!	!	!	!	!	!	!	!	!	!	!	!	!	!LO:LB:g=original	!	!	!
=4	=4	=4	=4	=4	=4	=4	=4	=4	=4	=4	=4	=4	=4	=4	=4	=4
2r	.	.	16e/LL	.	8gg\L	.	2r	.	2r	.	2r	.	8gg\L	O-	2r	2r
.	.	.	16a/	.	.	.	.	.	.	.	.	.	.	.	.	.
.	.	.	16g/	.	8ee\	.	.	.	.	.	.	.	8ee\J	.	.	.
.	.	.	16a/JJ	.	.	.	.	.	.	.	.	.	.	.	.	.
.	.	.	16d/LL	.	8ff#\	.	.	.	.	.	.	.	8ff#\L	-ra	.	.
.	.	.	16a/	.	.	.	.	.	.	.	.	.	.	.	.	.
.	.	.	16f#/	.	8dd\J	.	.	.	.	.	.	.	8dd\J	.	.	.
.	.	.	16a/JJ	.	.	.	.	.	.	.	.	.	.	.	.	.
!	!	!	!	!LO:HP:t=cres	!	!LO:HP:t=cres	!	!	!	!	!	!	!	!	!	!
8A\	.	.	16e/LL	<	8gg\L	<	8c#\L	o-	8e\L	O-	4a\	O-	8gg\L	O-	4a\	4ee\
.	.	.	16a/	.	.	.	.	.	.	.	.	.	.	.	.	.
8r	.	.	16g/	.	8ee\	.	8A\J	.	8c#\J	.	.	.	8ee\J	.	.	.
.	.	.	16a/JJ	.	.	.	.	.	.	.	.	.	.	.	.	.
!	!	!	!LO:LB:g=original	!	!	!	!	!	!	!	!	!	!	!	!	!
8D\	.	.	16d/LL	.	8ff#\	.	8d\L	-ra	4d\	-ra	4a\	-ra	8ff#\L	-ra	4dd\	4ff#\
.	.	.	16a/	.	.	.	.	.	.	.	.	.	.	.	.	.
8r	.	.	16f#/	.	8dd\J	.	8A\J	.	.	.	.	.	8dd\J	.	.	.
.	.	.	16a/JJ	.	.	.	.	.	.	.	.	.	.	.	.	.
=5	=5	=5	=5	=5	=5	=5	=5	=5	=5	=5	=5	=5	=5	=5	=5	=5
!LO:TX:a:t=P:problem:mixedbeam	!	!	!	!	!	!LO:DY:t=for	!	!	!	!	!	!	!	!	!	!
8A\L	.	.	8a/L	.	8cc#\L	f	8c#\	O-	8c#\	O-	8a\	O-	8aa\	O-	8a/L	8ee\L
8AA/	.	.	8cc# 8e/	.	8aa 8cc#\	.	8A\	-ra	8c#\	-ra	8a\	-ra	8a\	-ra	8a/	8ee\
8AA/	.	.	8cc# 8e/	.	8aa 8cc#\	.	8A\	pro	8c#\	pro	8a\	pro	8a\	pro	8a/	8ee\
!	!	!	!	!	!	!	!LO:LB:g=original	!	!	!	!	!	!	!	!	!
8AA/J	.	.	8cc#J 8e/	.	8aaJ 8cc#\	.	8A\	no-	8c#\	no-	8a\	no-	8a\	no-	8a/J	8ee\J
!	!	!	!	!	!	!	!	!	!LO:LB:g=original	!	!	!	!	!	!	!
4AA/	.	.	4cc# 4e/	.	4aa 4cc#\	.	4A\	-bis	4c#\	-bis	4a\	-bis	4a\	-bis	4a/	4ee\
4r	.	.	4r	.	4r	.	4r	.	4r	.	4r	.	4r	.	4r	4r
!	!	!	!	!	!LO:LB:g=original	!	!	!	!	!	!	!	!	!	!	!
=6	=6	=6	=6	=6	=6	=6	=6	=6	=6	=6	=6	=6	=6	=6	=6	=6
!	!	!	!	!	!	!LO:DY:t=for	!	!	!	!	!	!	!	!	!	!
4D\	.	.	4d/	.	4d/	f	4D\	Re-	4d\	Re-	4d\	Re-	4dd\	Re-	4d/	4dd\
8F#\L	.	.	8.f#/L	.	8.f#/L	.	8F#\L	-gi-	8f#\L	-gi-	8f#\L	-gi-	8ff#\L	-gi-	8f#/L	8ff#\L
8D\J	.	.	.	.	.	.	8D\J	.	8d\J	.	8d\J	.	8dd\J	.	8d/J	8dd\J
.	.	.	16d/Jk	.	16d/Jk	.	.	.	.	.	.	.	.	.	.	.
4A\	.	.	4a/	.	4a/	.	4A\	-na	4a\	-na	4a\	-na	4aa\	-na	4a/	4aa\
4r	.	.	4r	.	8r	.	4r	.	4r	.	4r	.	4r	.	4r	4r
!	!	!	!	!	!	!LO:DY:t=p.	!	!	!	!	!	!	!	!	!	!
.	.	.	.	.	8ff#\	p	.	.	.	.	.	.	.	.	.	.
!	!	!	!	!	!	!	!	!	!	!	!	!	!	!	!LO:LB:g=original	!LO:LB:g=original
=7	=7	=7	=7	=7	=7	=7	=7	=7	=7	=7	=7	=7	=7	=7	=7	=7
!	!	!	!	!LO:DY:t=p.	!	!	!	!	!	!	!	!	!	!	!	!
4r	.	.	16e/LL	p	8gg\L	.	4r	.	4r	.	4r	.	8gg\	pro-	4r	4r
.	.	.	16a/	.	.	.	.	.	.	.	.	.	.	.	.	.
.	.	.	16g/	.	8ee\	.	.	.	.	.	.	.	8ee\	-phe-	.	.
.	.	.	16a/JJ	.	.	.	.	.	.	.	.	.	.	.	.	.
*	*	*	*rep	*	*	*	*	*	*	*	*	*	*	*	*	*
8r	.	.	16e/LL	.	8b\	.	8r	.	8r	.	8r	.	8b\L	-ta-	8r	8r
.	.	.	16a/	.	.	.	.	.	.	.	.	.	.	.	.	.
8A\	.	.	16g/	.	8cc#\J	.	8A\	O-	8e\	O-	8g\	O-	8cc#\J	.	8ee\	8gg\
.	.	.	16a/JJ	.	.	.	.	.	.	.	.	.	.	.	.	.
*	*	*	*Xrep	*	*	*	*	*	*	*	*	*	*	*	*	*
!	!	!	!	!	!	!	!	!	!	!	!	!	!LO:LB:g=original	!	!	!
4D/	.	.	16d/LL	.	4.dd\	.	4d\	-ra	4f#\	-ra	4a\	-ra	4dd\	-rum	4dd\	4ff#\
.	.	.	16a/	.	.	.	.	.	.	.	.	.	.	.	.	.
.	.	.	16f#/	.	.	.	.	.	.	.	.	.	.	.	.	.
.	.	.	16a/JJ	.	.	.	.	.	.	.	.	.	.	.	.	.
*	*	*	*rep	*	*	*	*	*	*	*	*	*	*	*	*	*
4r	.	.	16d/LL	.	.	.	4r	.	4r	.	4r	.	8r	.	4r	4r
.	.	.	16a/	.	.	.	.	.	.	.	.	.	.	.	.	.
.	.	.	16f#/	.	16ee\LL	.	.	.	.	.	.	.	8ff#\	A-	.	.
.	.	.	16a/JJ	.	16ff#\JJ	.	.	.	.	.	.	.	.	.	.	.
*	*	*	*Xrep	*	*	*	*	*	*	*	*	*	*	*	*	*
!LO:LB:g=original	!	!	!	!	!	!	!	!	!	!	!	!	!	!	!	!
=8	=8	=8	=8	=8	=8	=8	=8	=8	=8	=8	=8	=8	=8	=8	=8	=8
4r	.	.	16e/LL	.	8gg\L	.	4r	.	4r	.	4r	.	8gg\	-po-	4r	4r
.	.	.	16a/	.	.	.	.	.	.	.	.	.	.	.	.	.
.	.	.	16g/	.	8ee\	.	.	.	.	.	.	.	8ee\	-sto-	.	.
.	.	.	16a/JJ	.	.	.	.	.	.	.	.	.	.	.	.	.
*	*	*	*rep	*	*	*	*	*	*	*	*	*	*	*	*	*
8r	.	.	16e/LL	.	8b\	.	8r	.	8r	.	8r	.	8b\L	-lo-	8r	8r
.	.	.	16a/	.	.	.	.	.	.	.	.	.	.	.	.	.
*	*	*	*	*	*	*	*	*ij	*	*ij	*	*	*	*	*	*
8A\	.	.	16g/	.	8cc#\J	.	8A\	O-	8e\	O-	8g\	o-	8cc#\J	.	8ee\	8gg\
.	.	.	16a/JJ	.	.	.	.	.	.	.	.	.	.	.	.	.
*	*	*	*Xrep	*	*	*	*	*	*	*	*	*	*	*	*	*
4D/	.	.	16d/LL	.	4.dd\	.	4d\	-ra	4f#\	-ra	4a\	-ra	4dd\	-rum	4dd\	4ff#\
*	*	*	*	*	*	*	*	*Xij	*	*Xij	*	*	*	*	*	*
.	.	.	16a/	.	.	.	.	.	.	.	.	.	.	.	.	.
.	.	.	16f#/	.	.	.	.	.	.	.	.	.	.	.	.	.
.	.	.	16a/JJ	.	.	.	.	.	.	.	.	.	.	.	.	.
*	*	*	*rep	*	*	*	*	*	*	*	*	*	*	*	*	*
4r	.	.	16d/LL	.	.	.	4r	.	4r	.	4r	.	4r	.	4r	4r
.	.	.	16a/	.	.	.	.	.	.	.	.	.	.	.	.	.
.	.	.	16f#/	.	16ee\LL	.	.	.	.	.	.	.	.	.	.	.
.	.	.	16a/JJ	.	16ff#\JJ	.	.	.	.	.	.	.	.	.	.	.
*	*	*	*Xrep	*	*	*	*	*	*	*	*	*	*	*	*	*
=9	=9	=9	=9	=9	=9	=9	=9	=9	=9	=9	=9	=9	=9	=9	=9	=9
2r	.	.	16e/LL	.	8gg\L	.	2r	.	2r	.	2r	.	8gg\L	O-	2r	2r
.	.	.	16a/	.	.	.	.	.	.	.	.	.	.	.	.	.
.	.	.	16g/	.	8ee\	.	.	.	.	.	.	.	8ee\J	.	.	.
.	.	.	16a/JJ	.	.	.	.	.	.	.	.	.	.	.	.	.
.	.	.	16d/LL	.	8ff#\	.	.	.	.	.	.	.	8ff#\L	-ra	.	.
.	.	.	16a/	.	.	.	.	.	.	.	.	.	.	.	.	.
.	.	.	16f#/	.	8dd\J	.	.	.	.	.	.	.	8dd\J	.	.	.
.	.	.	16a/JJ	.	.	.	.	.	.	.	.	.	.	.	.	.
!	!	!	!	!LO:HP:t=cres	!	!LO:HP:t=cres	!	!	!	!	!	!	!	!	!	!
8A\	.	.	16e/LL	<	8gg\L	<	8c#\L	O-	8e\L	O-	4a\	O-	8gg\L	O-	4a\	4ee\
.	.	.	16a/	.	.	.	.	.	.	.	.	.	.	.	.	.
8r	.	.	16g/	.	8ee\	.	8A\J	.	8c#\J	.	.	.	8ee\J	.	.	.
.	.	.	16a/JJ	.	.	.	.	.	.	.	.	.	.	.	.	.
!	!	!	!LO:LB:g=original	!	!	!	!	!	!	!	!	!	!	!	!	!
8D\	.	.	16d/LL	.	8ff#\	.	8d\L	-ra	4d\	-ra	4a\	-ra	8ff#\L	-ra	4dd\	4ff#\
.	.	.	16a/	.	.	.	.	.	.	.	.	.	.	.	.	.
8r	.	.	16f#/	.	8dd\J	.	8A\J	.	.	.	.	.	8dd\J	.	.	.
.	.	.	16a/JJ	.	.	.	.	.	.	.	.	.	.	.	.	.
=10	=10	=10	=10	=10	=10	=10	=10	=10	=10	=10	=10	=10	=10	=10	=10	=10
!LO:TX:a:t=P:problem:mixedbeam	!	!	!	!	!	!	!	!	!	!	!	!	!	!	!	!
8A\L	.	.	8a/L	.	8cc#\L	.	8c#\	O-	8c#\	O-	8a\	O-	8aa\	O-	8a/L	8ee\L
!	!	!	!	!	!	!LO:DY:t=for	!	!	!	!	!	!	!	!	!	!
8AA/	.	.	8cc# 8e/	.	8aa 8cc#\	f	8A\	-ra	8c#\	-ra	8a\	-ra	8a\	-ra	8a/	8ee\
8AA/	.	.	8cc# 8e/	.	8aa 8cc#\	.	8A\	pro	8c#\	pro	8a\	pro	8a\	pro	8a/	8ee\
!	!	!	!	!	!	!	!LO:LB:g=original	!	!LO:LB:g=original	!	!	!	!	!	!	!
8AA/J	.	.	8cc#J 8e/	.	8aaJ 8cc#\	.	8A\	no-	8c#\	no-	8a\	no-	8a\	no-	8a/J	8ee\J
4AA/	.	.	4cc# 4e/	.	4aa 4cc#\	.	4A\	-bis	4c#\	-bis	8a\	-bis	4a\	-bis	4a/	4ee\
.	.	.	.	.	.	.	.	.	.	.	8r	.	.	.	.	.
4r	.	.	4r	.	4r	.	4r	.	4r	.	4r	.	4r	.	4r	4r
!	!	!	!	!	!	!	!	!	!	!	!LO:LB:g=original	!	!LO:LB:g=original	!	!	!
=11	=11	=11	=11	=11	=11	=11	=11	=11	=11	=11	=11	=11	=11	=11	=11	=11
!	!	!	!LO:TX:a:t=Tutti	!	!LO:TX:a:rj:t=Tutti	!	!	!	!	!	!	!	!	!	!	!
8D\L	.	.	16d/LL	.	8dddL 8dd\	.	4D\	Re-	4d\	Re-	4a\	Re-	4ff#\	Re-	2ff#\	2aa\
.	.	.	16a/	.	.	.	.	.	.	.	.	.	.	.	.	.
8AA\	.	.	16f#/	.	8aa\	.	.	.	.	.	.	.	.	.	.	.
.	.	.	16a/JJ	.	.	.	.	.	.	.	.	.	.	.	.	.
*	*	*	*rep	*	*	*	*	*	*	*	*	*	*	*	*	*
8F#\	.	.	16d/LL	.	8aa\	.	8d\	-gi-	8d\	-gi-	8a\	-gi-	8ff#\	-gi-	.	.
.	.	.	16a/	.	.	.	.	.	.	.	.	.	.	.	.	.
8AA\J	.	.	16f#/	.	8aa\J	.	8d\	-na	8d\	-na	8a\	-na	8ff#\	-na	.	.
.	.	.	16a/JJ	.	.	.	.	.	.	.	.	.	.	.	.	.
*	*	*	*Xrep	*	*	*	*	*	*	*	*	*	*	*	*	*
*	*	*	*rep	*	*	*	*	*	*	*	*	*	*	*	*	*
8D\L	.	.	16d/LL	.	4aa\	.	8d\L	a-	4d\	a-	4a\	A-	4ff#\	A-	2dd\	2ff#\
.	.	.	16a/	.	.	.	.	.	.	.	.	.	.	.	.	.
8AA\	.	.	16f#/	.	.	.	8A\J	.	.	.	.	.	.	.	.	.
.	.	.	16a/JJ	.	.	.	.	.	.	.	.	.	.	.	.	.
*	*	*	*Xrep	*	*	*	*	*	*	*	*	*	*	*	*	*
*	*	*	*rep	*	*	*	*	*	*	*	*	*	*	*	*	*
8F#\	.	.	16d/LL	.	16gg\LL	.	8F#\	-po-	8c#\	-po-	8a\	-po-	8ee\	-po-	.	.
.	.	.	16a/	.	16ff#\	.	.	.	.	.	.	.	.	.	.	.
8AA\J	.	.	16f#/	.	16ee\	.	8D\	-sto-	8d\	-sto-	8a\	-sto-	8ff#\	-sto-	.	.
.	.	.	16a/JJ	.	16dd\JJ	.	.	.	.	.	.	.	.	.	.	.
*	*	*	*Xrep	*	*	*	*	*	*	*	*	*	*	*	*	*
!	!	!	!	!	!LO:LB:g=original	!	!	!	!	!	!	!	!	!	!	!
=12	=12	=12	=12	=12	=12	=12	=12	=12	=12	=12	=12	=12	=12	=12	=12	=12
8E\L	.	.	16e/LL	.	8dd\L	.	4A\	-lo-	8d\L	-lo-	4a\	-lo-	8ff#\L	-lo-	8dd\L	8ff#\L
.	.	.	16a/	.	.	.	.	.	.	.	.	.	.	.	.	.
8AA\	.	.	16g/	.	8cc#\J	.	.	.	8e\J	.	.	.	8gg\J	.	8ee\J	8gg\J
.	.	.	16a/JJ	.	.	.	.	.	.	.	.	.	.	.	.	.
*	*	*	*rep	*	*	*	*	*	*	*	*	*	*	*	*	*
8G\	.	.	16e/LL	.	4cc#\	.	4AA/	-rum	4c#\	-rum	4a\	-rum	4ee\	-rum	4a\	4ee\
.	.	.	16a/	.	.	.	.	.	.	.	.	.	.	.	.	.
8AA\J	.	.	16g/	.	.	.	.	.	.	.	.	.	.	.	.	.
.	.	.	16a/JJ	.	.	.	.	.	.	.	.	.	.	.	.	.
*	*	*	*Xrep	*	*	*	*	*	*	*	*	*	*	*	*	*
*	*	*	*rep	*	*	*	*	*	*	*	*	*	*	*	*	*
8E\L	.	.	16e/LL	.	16cc#\LL	.	2r	.	2r	.	2r	.	2r	.	2r	2r
.	.	.	16a/	.	16dd\	.	.	.	.	.	.	.	.	.	.	.
8AA\	.	.	16g/	.	16ee\	.	.	.	.	.	.	.	.	.	.	.
.	.	.	16a/JJ	.	16ff#\JJ	.	.	.	.	.	.	.	.	.	.	.
*	*	*	*Xrep	*	*	*	*	*	*	*	*	*	*	*	*	*
*	*	*	*rep	*	*	*	*	*	*	*	*	*	*	*	*	*
8G\	.	.	16e/LL	.	16gg\LL	.	.	.	.	.	.	.	.	.	.	.
.	.	.	16a/	.	16aa\	.	.	.	.	.	.	.	.	.	.	.
8AA\J	.	.	16g/	.	16bb\	.	.	.	.	.	.	.	.	.	.	.
.	.	.	16a/JJ	.	16ccc#\JJ	.	.	.	.	.	.	.	.	.	.	.
*	*	*	*Xrep	*	*	*	*	*	*	*	*	*	*	*	*	*
=13	=13	=13	=13	=13	=13	=13	=13	=13	=13	=13	=13	=13	=13	=13	=13	=13
*	*	*	*	*	*	*	*	*ij	*	*	*	*	*	*	*	*
!	!	!	!	!	!	!	!	!	!	!	!LO:TX:t=P:problem:t. 13-14 zapisane repetycją	!	!	!	!	!
8D\L	.	.	16d/LL	.	8ddd\L	.	4D/	Re-	4d\	Re-	4a\yy	Re-	4ff#\	Re-	2ff#\	2aa\
.	.	.	16a/	.	.	.	.	.	.	.	.	.	.	.	.	.
8AA\	.	.	16f#/	.	8aa\	.	.	.	.	.	.	.	.	.	.	.
.	.	.	16a/JJ	.	.	.	.	.	.	.	.	.	.	.	.	.
*	*	*	*rep	*	*	*	*	*	*	*	*	*	*	*	*	*
8F#\	.	.	16d/LL	.	8aa\	.	8d\	-gi-	8d\	-gi-	8a\yy	-gi-	8ff#\	-gi-	.	.
.	.	.	16a/	.	.	.	.	.	.	.	.	.	.	.	.	.
8AA\J	.	.	16f#/	.	8aa\J	.	8d\	-na	8d\	-na	8a\yy	-na	8ff#\	-na	.	.
.	.	.	16a/JJ	.	.	.	.	.	.	.	.	.	.	.	.	.
*	*	*	*Xrep	*	*	*	*	*	*	*	*	*	*	*	*	*
*	*	*	*rep	*	*	*	*	*	*	*	*	*	*	*	*	*
8D\L	.	.	16d/LL	.	16gg#X\LL	.	8d\L	a-	4d\	A-	4a\yy	A-	4ff#\	A-	2dd\	2ff#\
.	.	.	16a/	.	16aa\	.	.	.	.	.	.	.	.	.	.	.
8AA\	.	.	16f#/	.	16bb\	.	8A\J	.	.	.	.	.	.	.	.	.
.	.	.	16a/JJ	.	16aa\JJ	.	.	.	.	.	.	.	.	.	.	.
*	*	*	*Xrep	*	*	*	*	*	*	*	*	*	*	*	*	*
*	*	*	*rep	*	*	*	*	*	*	*	*	*	*	*	*	*
8F#\	.	.	16d/LL	.	16ggn\LL	.	8F#\	-po-	8c#\	-po-	8a\yy	-po-	8ee\	-po-	.	.
.	.	.	16a/	.	16ff#\	.	.	.	.	.	.	.	.	.	.	.
8AA\J	.	.	16f#/	.	16ee\	.	8D\	-sto-	8d\	-sto-	8a\yy	-sto-	8ff#\	-sto-	.	.
.	.	.	16a/JJ	.	16dd\JJ	.	.	.	.	.	.	.	.	.	.	.
*	*	*	*Xrep	*	*	*	*	*	*	*	*	*	*	*	*	*
!	!	!	!	!	!	!	!LO:LB:g=original	!	!LO:LB:g=original	!	!	!	!	!	!	!
=14	=14	=14	=14	=14	=14	=14	=14	=14	=14	=14	=14	=14	=14	=14	=14	=14
8E\L	.	.	16e/LL	.	8dd\L	.	4A\	-lo-	8d\L	-lo-	4a\yy	-lo-	8ff#\L	-lo-	8dd\L	8ff#\L
.	.	.	16a/	.	.	.	.	.	.	.	.	.	.	.	.	.
8AA\	.	.	16g/	.	8cc#\J	.	.	.	8e\J	.	.	.	8gg\J	.	8ee\J	8gg\J
.	.	.	16a/JJ	.	.	.	.	.	.	.	.	.	.	.	.	.
*	*	*	*rep	*	*	*	*	*	*	*	*	*	*	*	*	*
8G\	.	.	16e/LL	.	4cc#\	.	4AA/	-rum	4c#\	-rum	4a\yy	-rum	4ee\	-rum	4a\	4ee\
*	*	*	*	*	*	*	*	*Xij	*	*	*	*	*	*	*	*
.	.	.	16a/	.	.	.	.	.	.	.	.	.	.	.	.	.
8AA\J	.	.	16g/	.	.	.	.	.	.	.	.	.	.	.	.	.
.	.	.	16a/JJ	.	.	.	.	.	.	.	.	.	.	.	.	.
*	*	*	*Xrep	*	*	*	*	*	*	*	*	*	*	*	*	*
*	*	*	*rep	*	*	*	*	*	*	*	*	*	*	*	*	*
8E\L	.	.	16e/LL	.	16cc#\LL	.	2r	.	2r	.	2ryy	.	2r	.	2r	2r
.	.	.	16a/	.	16dd\	.	.	.	.	.	.	.	.	.	.	.
8AA\	.	.	16g/	.	16ee\	.	.	.	.	.	.	.	.	.	.	.
.	.	.	16a/JJ	.	16ff#\JJ	.	.	.	.	.	.	.	.	.	.	.
*	*	*	*Xrep	*	*	*	*	*	*	*	*	*	*	*	*	*
*	*	*	*rep	*	*	*	*	*	*	*	*	*	*	*	*	*
8G\	.	.	16e/LL	.	16gg\LL	.	.	.	.	.	.	.	.	.	.	.
.	.	.	16a/	.	16aa\	.	.	.	.	.	.	.	.	.	.	.
8AA\J	.	.	16g/	.	16bb\	.	.	.	.	.	.	.	.	.	.	.
.	.	.	16a/JJ	.	16ccc#\JJ	.	.	.	.	.	.	.	.	.	.	.
*	*	*	*Xrep	*	*	*	*	*	*	*	*	*	*	*	*	*
!LO:LB:g=original	!	!	!LO:LB:g=original	!	!	!	!	!	!	!	!	!	!LO:LB:g=original	!	!	!
=15	=15	=15	=15	=15	=15	=15	=15	=15	=15	=15	=15	=15	=15	=15	=15	=15
*	*	*	*tremolo	*	*tremolo	*	*	*	*	*	*	*	*	*	*	*
!	!	!	!	!	!	!	!	!	!	!	!	!	!	!	!LO:TX:a:t=4	!LO:TX:a:t=4
8D\L	x 8	.	16ddLL 16d/	.	16ddd\LL	.	4r	.	4r	.	4r	.	4r	.	00r	00r
.	.	.	16dd 16d/	.	16ddd\	.	.	.	.	.	.	.	.	.	.	.
8D\	.	.	16dd 16d/	.	16ddd\	.	.	.	.	.	.	.	.	.	.	.
.	.	.	16dd 16d/	.	16ddd\JJ	.	.	.	.	.	.	.	.	.	.	.
8F#\	x 5	.	16dd 16d/	.	16aa#X\LL	.	4F#\	o-	4d\	O-	4f#\	O-	4aa#X\	O-	.	.
.	.	.	16dd 16d/	.	16aa#\	.	.	.	.	.	.	.	.	.	.	.
8F#\J	.	.	16dd 16d/	.	16aa#\	.	.	.	.	.	.	.	.	.	.	.
.	.	.	16ddJJ 16d/	.	16aa#\JJ	.	.	.	.	.	.	.	.	.	.	.
8G\L	x 3	.	16ddLL 16d/	.	16bb\LL	.	4G\	-ra	4d\	-ra	4g\	-ra	4bb\	-ra	.	.
.	.	.	16dd 16d/	.	16bb\	.	.	.	.	.	.	.	.	.	.	.
8G\	.	.	16dd 16d/	.	16bb\	.	.	.	.	.	.	.	.	.	.	.
.	.	.	16ddJJ 16d/	.	16bb\JJ	.	.	.	.	.	.	.	.	.	.	.
8D#X\	x 5	.	16b/LL	.	16ff#\LL	.	4D#X\	pro	4B\	pro	4d#X\	pro	4ff#\	pro	.	.
.	.	.	16b/	.	16ff#\	.	.	.	.	.	.	.	.	.	.	.
8D#\J	.	.	16b/	.	16ff#\	.	.	.	.	.	.	.	.	.	.	.
.	.	.	16b/JJ	.	16ff#\JJ	.	.	.	.	.	.	.	.	.	.	.
=16	=16	=16	=16	=16	=16	=16	=16	=16	=16	=16	=16	=16	=16	=16	=16	=16
8E\L	x 3	.	16b/LL	.	16gg\LL	.	(4E\	no-	2B\	no-	(4e\	no-	(4gg\	no-	.	.
.	.	.	16b/	.	16gg\	.	.	.	.	.	.	.	.	.	.	.
8E\	.	.	16b/	.	16gg\	.	.	.	.	.	.	.	.	.	.	.
.	.	.	16b/	.	16gg\JJ	.	.	.	.	.	.	.	.	.	.	.
8F#\	x 3	.	16b/	.	16dd#X\LL	.	4F#\)	.	.	.	4f#\)	.	4dd#X\)	.	.	.
.	.	.	16b/	.	16dd#\	.	.	.	.	.	.	.	.	.	.	.
8F#\J	.	.	16b/	.	16dd#\	.	.	.	.	.	.	.	.	.	.	.
.	.	.	16b/JJ	.	16dd#\JJ	.	.	.	.	.	.	.	.	.	.	.
8G\L	x 3	.	16b/LL	.	16ee\LL	.	4G\	-bis	4B\	-bis	4g\	-bis	4ee\	-bis	.	.
.	.	.	16b/	.	16ee\	.	.	.	.	.	.	.	.	.	.	.
8G\	.	.	16b/	.	16ee\	.	.	.	.	.	.	.	.	.	.	.
.	.	.	16b/	.	16ee\JJ	.	.	.	.	.	.	.	.	.	.	.
8E\	.	.	16b/	.	16bb\LL	.	4r	.	4r	.	4r	.	4r	.	.	.
.	.	.	16b/	.	16bb\	.	.	.	.	.	.	.	.	.	.	.
8E\J	.	.	16b/	.	16bb\	.	.	.	.	.	.	.	.	.	.	.
.	.	.	16b/JJ	.	16bb\JJ	.	.	.	.	.	.	.	.	.	.	.
!	!	!	!	!	!LO:LB:g=original	!	!	!	!	!	!	!	!	!	!	!
=17	=17	=17	=17	=17	=17	=17	=17	=17	=17	=17	=17	=17	=17	=17	=17	=17
8AA/L	x 8	.	16aLL 16A/	.	16aa\LL	.	4r	.	4r	.	4r	.	4r	.	.	.
.	.	.	16a 16A/	.	16aa\	.	.	.	.	.	.	.	.	.	.	.
8AA/	.	.	16a 16A/	.	16aa\	.	.	.	.	.	.	.	.	.	.	.
.	.	.	16a 16A/	.	16aa\JJ	.	.	.	.	.	.	.	.	.	.	.
8C#/	x 5	.	16a 16A/	.	16ee\LL	.	4C#/	O-	4A\	O-	4c#\	O-	4ee\	O-	.	.
.	.	.	16a 16A/	.	16ee\	.	.	.	.	.	.	.	.	.	.	.
8C#/J	.	.	16a 16A/	.	16ee\	.	.	.	.	.	.	.	.	.	.	.
.	.	.	16aJJ 16A/	.	16ee\JJ	.	.	.	.	.	.	.	.	.	.	.
8D/L	x 3	.	16aLL 16A/	.	16ff#\LL	.	4D/	-ra	4A\	-ra	4d\	-ra	4ff#\	-ra	.	.
.	.	.	16a 16A/	.	16ff#\	.	.	.	.	.	.	.	.	.	.	.
8D/	.	.	16a 16A/	.	16ff#\	.	.	.	.	.	.	.	.	.	.	.
.	.	.	16a 16A/	.	16ff#\JJ	.	.	.	.	.	.	.	.	.	.	.
8E/	6 3	.	16a 16A/	.	16cc#\LL	.	4E/	pro	4A\	pro	4e\	pro	4cc#\	pro	.	.
.	.	.	16a 16A/	.	16cc#\	.	.	.	.	.	.	.	.	.	.	.
8E/J	.	.	16a 16A/	.	16cc#\	.	.	.	.	.	.	.	.	.	.	.
.	.	.	16aJJ 16A/	.	16cc#\JJ	.	.	.	.	.	.	.	.	.	.	.
=18	=18	=18	=18	=18	=18	=18	=18	=18	=18	=18	=18	=18	=18	=18	=18	=18
8F#\L	6 3	.	16aLL 16A/	.	16dd\LL	.	(4F#/	no-	2A\	no-	(4f#\	no-	(4dd\	no-	.	.
.	.	.	16a 16A/	.	16dd\	.	.	.	.	.	.	.	.	.	.	.
8F#\	.	.	16a 16A/	.	16dd\	.	.	.	.	.	.	.	.	.	.	.
.	.	.	16a 16A/	.	16dd\JJ	.	.	.	.	.	.	.	.	.	.	.
8C#\	6 3	.	16a 16A/	.	16ee\LL	.	4C#/)	.	.	.	4g\)	.	4ee\)	.	.	.
.	.	.	16a 16A/	.	16ee\	.	.	.	.	.	.	.	.	.	.	.
8C#\J	.	.	16a 16A/	.	16ee\	.	.	.	.	.	.	.	.	.	.	.
.	.	.	16aJJ 16A/	.	16ee\JJ	.	.	.	.	.	.	.	.	.	.	.
8D\L	x 3	.	16aLL 16A/	.	16ff#\LL	.	4D/	-bis	4A\	-bis	4a\	-bis	4ff#\	-bis	.	.
.	.	.	16a 16A/	.	16ff#\	.	.	.	.	.	.	.	.	.	.	.
8D\	.	.	16a 16A/	.	16ff#\	.	.	.	.	.	.	.	.	.	.	.
.	.	.	16a 16A/	.	16ff#\JJ	.	.	.	.	.	.	.	.	.	.	.
8F#\	x 3	.	16a 16A/	.	16aa\LL	.	4r	.	4r	.	4r	.	4r	.	.	.
.	.	.	16a 16A/	.	16aa\	.	.	.	.	.	.	.	.	.	.	.
8F#\J	.	.	16a 16A/	.	16aa\	.	.	.	.	.	.	.	.	.	.	.
.	.	.	16aJJ 16A/	.	16aa\JJ	.	.	.	.	.	.	.	.	.	.	.
=19	=19	=19	=19	=19	=19	=19	=19	=19	=19	=19	=19	=19	=19	=19	=19	=19
8E\L	6 3	.	16aLL 16A/	.	16gg\LL	.	(4B\	O-	(4e\	O-	2a\	O-	(4gg\	O-	4ee\	4aa\
.	.	.	16a 16A/	.	16gg\	.	.	.	.	.	.	.	.	.	.	.
8AA\	.	.	16a 16A/	.	16gg\	.	.	.	.	.	.	.	.	.	.	.
.	.	.	16a 16A/	.	16gg\JJ	.	.	.	.	.	.	.	.	.	.	.
8C#\	.	.	16a 16A/	.	16ee\LL	.	4c#\)	.	4c#\)	.	.	.	4ee\)	.	4a\	4ee\
.	.	.	16a 16A/	.	16ee\	.	.	.	.	.	.	.	.	.	.	.
8AA\J	.	.	16a 16A/	.	16ee\	.	.	.	.	.	.	.	.	.	.	.
.	.	.	16aJJ 16A/	.	16ee\JJ	.	.	.	.	.	.	.	.	.	.	.
8D\L	8 3	.	16aLL 16A/	.	16ff#\LL	.	4d\	-ra	4d\	-ra	4a\	-ra	4ff#\	-ra	4dd\	4ff#\
.	.	.	16a 16A/	.	16ff#\	.	.	.	.	.	.	.	.	.	.	.
8AA\	.	.	16a 16A/	.	16ff#\	.	.	.	.	.	.	.	.	.	.	.
.	.	.	16a 16A/	.	16ff#\JJ	.	.	.	.	.	.	.	.	.	.	.
8F#\	.	.	16a 16A/	.	16aa\LL	.	4r	.	4r	.	4r	.	4r	.	4r	4r
.	.	.	16a 16A/	.	16aa\	.	.	.	.	.	.	.	.	.	.	.
8AA\J	.	.	16a 16A/	.	16aa\	.	.	.	.	.	.	.	.	.	.	.
.	.	.	16aJJ 16A/	.	16aa\JJ	.	.	.	.	.	.	.	.	.	.	.
!	!	!	!	!	!	!	!LO:LB:g=original	!	!LO:LB:g=original	!	!	!	!	!	!LO:LB:g=original	!LO:LB:g=original
=20	=20	=20	=20	=20	=20	=20	=20	=20	=20	=20	=20	=20	=20	=20	=20	=20
8E\L	6 3	.	16aLL 16A/	.	16gg\LL	.	4A\	pro	(4e\	O-	4a\	pro	(4gg\	O-	4ee\	4gg\
.	.	.	16a 16A/	.	16gg\	.	.	.	.	.	.	.	.	.	.	.
8AA\	.	.	16a 16A/	.	16gg\	.	.	.	.	.	.	.	.	.	.	.
.	.	.	16a 16A/	.	16gg\JJ	.	.	.	.	.	.	.	.	.	.	.
8C#\	.	.	16a 16A/	.	16ee\LL	.	4c#\	no-	4c#\)	.	4a\	no-	4ee\)	.	4a\	4ee\
.	.	.	16a 16A/	.	16ee\	.	.	.	.	.	.	.	.	.	.	.
8AA\J	.	.	16a 16A/	.	16ee\	.	.	.	.	.	.	.	.	.	.	.
.	.	.	16aJJ 16A/	.	16ee\JJ	.	.	.	.	.	.	.	.	.	.	.
8D\L	8 3	.	16aLL 16A/	.	16ff#\LL	.	4d\	-bis	4d\	-ra	4a\	-bis	4ff#\	-ra	4dd\	4ff#\
.	.	.	16a 16A/	.	16ff#\	.	.	.	.	.	.	.	.	.	.	.
8AA\	.	.	16a 16A/	.	16ff#\	.	.	.	.	.	.	.	.	.	.	.
.	.	.	16a 16A/	.	16ff#\JJ	.	.	.	.	.	.	.	.	.	.	.
8F#\	.	.	16a 16A/	.	16aa\LL	.	4r	.	4r	.	4r	.	4r	.	4r	4r
.	.	.	16a 16A/	.	16aa\	.	.	.	.	.	.	.	.	.	.	.
8AA\J	.	.	16a 16A/	.	16aa\	.	.	.	.	.	.	.	.	.	.	.
.	.	.	16aJJ 16A/	.	16aa\JJ	.	.	.	.	.	.	.	.	.	.	.
!LO:PB:g=original	!	!	!	!	!	!	!	!	!	!	!	!	!LO:LB:g=original	!	!	!
=21	=21	=21	=21	=21	=21	=21	=21	=21	=21	=21	=21	=21	=21	=21	=21	=21
8E\L	.	.	16ee\LL	.	16gg\LL	.	4A\	O-	4e\	O-	4a\	O-	4gg\	O-	4ee\	4gg\
.	.	.	16ee\	.	16gg\	.	.	.	.	.	.	.	.	.	.	.
8AA\	.	.	16ee\	.	16gg\	.	.	.	.	.	.	.	.	.	.	.
.	.	.	16ee\JJ	.	16gg\JJ	.	.	.	.	.	.	.	.	.	.	.
8C#\	.	.	16cc#\LL	.	16ee\LL	.	8c#\	-ra	8c#\	-ra	8a\	-ra	8ee\	-ra	4a\	4ee\
.	.	.	16cc#\	.	16ee\	.	.	.	.	.	.	.	.	.	.	.
8AA\J	.	.	16cc#\	.	16ee\	.	8c#\	pro	8c#\	pro	8a\	pro	8ee\	pro	.	.
.	.	.	16cc#\JJ	.	16ee\JJ	.	.	.	.	.	.	.	.	.	.	.
!LO:TX:a:t=P:problem:mixedbeam	!	!	!	!	!	!	!	!	!	!	!	!	!	!	!	!
8D\L	.	.	16dd\LL	.	16ff#\LL	.	4d\	no-	4d\	no-	4a\	no-	4ff#\	no-	4dd\	4ff#\
.	.	.	16dd\	.	16ff#\	.	.	.	.	.	.	.	.	.	.	.
8D\	.	.	16dd\	.	16ff#\	.	.	.	.	.	.	.	.	.	.	.
.	.	.	16dd\JJ	.	16ff#\JJ	.	.	.	.	.	.	.	.	.	.	.
8E\	.	.	16b\LL	.	16gg#X\LL	.	4e\	-bis	4B\	-bis	4a\	-bis	4gg#X\	-bis	4ee\	4ee\
.	.	.	16b\	.	16gg#\	.	.	.	.	.	.	.	.	.	.	.
8EE/J	.	.	16b\	.	16gg#\	.	.	.	.	.	.	.	.	.	.	.
.	.	.	16b\JJ	.	16gg#\JJ	.	.	.	.	.	.	.	.	.	.	.
*	*	*	*Xtremolo	*	*Xtremolo	*	*	*	*	*	*	*	*	*	*	*
!	!	!	!	!	!	!	!	!	!	!	!LO:LB:g=original	!	!	!	!	!
=22	=22	=22	=22	=22	=22	=22	=22	=22	=22	=22	=22	=22	=22	=22	=22	=22
!	!	!	!	!	!LO:TX:a:t=P:problem:mixedbeam	!	!	!	!	!	!	!	!	!	!	!
8AA/L	.	.	8cc#L 8e/	.	8aa\L	.	8A\	O-	8A\	O-	8a\	O-	8aa\	O-	8A/L	8a/L
8AA/	.	.	8cc# 8e/	.	8a/	.	8AA/	-ra	8c#\	-ra	8a\	-ra	8a\	-ra	8A/	8a/
8AA/	.	.	8cc# 8e/	.	8a/	.	8AA/	pro	8c#\	pro	8a\	pro	8a\	pro	8A/	8a/
8AA/J	.	.	8cc#J 8e/	.	8a/J	.	8AA/	no-	8c#\	no-	8a\	no-	8a\	no-	8A/J	8a/J
4AA/	.	.	4cc# 4e/	.	4a/	.	4AA/	-bis	4c#\	-bis	4a\	-bis	4a\	-bis	4A/	4a/
4r	.	.	4r	.	4r	.	4r	.	4r	.	4r	.	4r	.	4r	4r
=23	=23	=23	=23	=23	=23	=23	=23	=23	=23	=23	=23	=23	=23	=23	=23	=23
!	!	!LO:DY:t=p&colon;	!	!	!	!	!	!	!LO:TX:a:t=6	!	!LO:TX:a:rj:t=Solo	!	!	!	!LO:TX:a:t=22	!LO:TX:a:t=22
4A\	.	p	8r	.	8r	.	00r	.	00r	.	2cc#\	Re-	2ee\	Re-	00r	00r
!	!	!	!	!	!	!LO:DY:rj:t=pp.	!	!	!	!	!	!	!	!	!	!
.	.	.	8a\L	.	8cc#\L	pp	.	.	.	.	.	.	.	.	.	.
4r	.	.	8cc#\	.	8ee\	.	.	.	.	.	.	.	.	.	.	.
.	.	.	8a\J	.	8cc#\J	.	.	.	.	.	.	.	.	.	.	.
4E\	.	.	8r	.	8r	.	.	.	.	.	4.dd\	-gi-	4.ff#\	-gi-	.	.
.	.	.	8g#X/L	.	8b\L	.	.	.	.	.	.	.	.	.	.	.
4r	.	.	8b/	.	8dd\	.	.	.	.	.	.	.	.	.	.	.
.	.	.	8g#/J	.	8b\J	.	.	.	.	.	8b\	-na	8dd\	-na	.	.
!	!	!	!LO:PB:g=original	!	!	!	!	!	!	!	!	!	!	!	!	!
=24	=24	=24	=24	=24	=24	=24	=24	=24	=24	=24	=24	=24	=24	=24	=24	=24
!	!	!	!LO:TX:a:t=P:problem:mixedbeam	!	!LO:TX:a:t=P:problem:mixedbeam	!	!	!	!	!	!	!	!	!	!	!
4AA/	.	.	8a/L	.	8a/L	.	.	.	.	.	4.a\	Mar-	4.cc#\	Mar-	.	.
.	.	.	8ff#\	.	8aa\	.	.	.	.	.	.	.	.	.	.	.
4r	.	.	8ee\	.	8gg#X\	.	.	.	.	.	.	.	.	.	.	.
.	.	.	8dd\J	.	8ff#\J	.	.	.	.	.	8b\	-ti-	8dd\	-ti-	.	.
!	!	!	!	!	!LO:LB:g=original	!	!	!	!	!	!	!	!	!	!	!
2r	.	.	8cc#\L	.	8ee\L	.	.	.	.	.	4cc#\	-rum	4ee\	-rum	.	.
.	.	.	8dd\	.	8ff#\	.	.	.	.	.	.	.	.	.	.	.
.	.	.	8cc#\	.	8ee\	.	.	.	.	.	4r	.	4r	.	.	.
.	.	.	8b\J	.	8dd\J	.	.	.	.	.	.	.	.	.	.	.
!	!	!	!	!	!	!	!	!	!	!	!	!	!LO:LB:g=original	!	!	!
=25	=25	=25	=25	=25	=25	=25	=25	=25	=25	=25	=25	=25	=25	=25	=25	=25
4A\	.	.	8r	.	8r	.	.	.	.	.	4cc#\	Re-	4ee\	Re-	.	.
.	.	.	8a\L	.	8cc#\L	.	.	.	.	.	.	.	.	.	.	.
4r	.	.	8cc#\	.	8ee\	.	.	.	.	.	8cc#\	-gi-	8ee\	-gi-	.	.
.	.	.	8a\J	.	8cc#\J	.	.	.	.	.	8cc#\	-na	8ee\	-na	.	.
4E\	.	.	8r	.	8r	.	.	.	.	.	4.dd\	Con-	4.ff#\	Con-	.	.
.	.	.	8g#X\L	.	8b\L	.	.	.	.	.	.	.	.	.	.	.
4r	.	.	8b\	.	8dd\	.	.	.	.	.	.	.	.	.	.	.
.	.	.	8g#\J	.	8b\J	.	.	.	.	.	8b\	-fe-	8dd\	-fe-	.	.
=26	=26	=26	=26	=26	=26	=26	=26	=26	=26	=26	=26	=26	=26	=26	=26	=26
!	!	!	!LO:TX:a:t=P:problem:mixedbeam	!	!LO:TX:a:t=P:problem:mixedbeam	!	!	!	!	!	!	!	!	!	!	!
4AA/	.	.	8a/L	.	8a/L	.	.	.	.	.	4.a\	-so-	4.cc#\	-so-	.	.
.	.	.	8ff#\	.	8aa\	.	.	.	.	.	.	.	.	.	.	.
4r	.	.	8ee\	.	8gg#X\	.	.	.	.	.	.	.	.	.	.	.
.	.	.	8dd\J	.	8ff#\J	.	.	.	.	.	8b\	.	8dd\	.	.	.
2r	.	.	8cc#\L	.	8ee\L	.	.	.	.	.	4cc#\	-rum	4ee\	-rum	.	.
.	.	.	8dd\	.	8ff#\	.	.	.	.	.	.	.	.	.	.	.
.	.	.	8cc#\	.	8ee\	.	.	.	.	.	4r	.	4r	.	.	.
.	.	.	8b\J	.	8dd\J	.	.	.	.	.	.	.	.	.	.	.
=27	=27	=27	=27	=27	=27	=27	=27	=27	=27	=27	=27	=27	=27	=27	=27	=27
4AA/	.	.	8a/L	.	4.cc#\	.	0r	.	0r	.	2a\	O-	2cc#\	O-	00r	00r
.	.	.	8e/	.	.	.	.	.	.	.	.	.	.	.	.	.
4A\	x 3	.	8a/	.	.	.	.	.	.	.	.	.	.	.	.	.
.	.	.	8e/J	.	16dd\LL	.	.	.	.	.	.	.	.	.	.	.
.	.	.	.	.	16cc#\JJ	.	.	.	.	.	.	.	.	.	.	.
4G#X\	x 3	.	8g#X/L	.	4b\	.	.	.	.	.	4g#X\	-ra	4b\	-ra	.	.
.	.	.	8e/	.	.	.	.	.	.	.	.	.	.	.	.	.
4A\	x 3	.	8a/	.	4cc#\	.	.	.	.	.	4a\	pro	4cc#\	pro	.	.
.	.	.	8e/J	.	.	.	.	.	.	.	.	.	.	.	.	.
=28	=28	=28	=28	=28	=28	=28	=28	=28	=28	=28	=28	=28	=28	=28	=28	=28
4.B\	x 3	.	8b/L	.	8dd\L	.	.	.	.	.	4.b\	no-	4.dd\	no-	.	.
.	.	.	8e/	.	8gg#X\	.	.	.	.	.	.	.	.	.	.	.
.	.	.	8dd/	.	8bb\	.	.	.	.	.	.	.	.	.	.	.
8A\	x 3	.	8e/J	.	8aa\J	.	.	.	.	.	8a\	.	8cc#\	.	.	.
4E\	5 3	.	8b/L	.	8gg#X\L	.	.	.	.	.	4g#X\	-bis	4b\	-bis	.	.
.	.	.	8e/	.	8ff#\	.	.	.	.	.	.	.	.	.	.	.
4EE/	.	.	8g#X/	.	8ee\	.	.	.	.	.	4r	.	4r	.	.	.
.	.	.	8b/J	.	8dd\J	.	.	.	.	.	.	.	.	.	.	.
!LO:LB:g=original	!	!	!	!	!	!	!	!	!	!	!	!	!	!	!	!
=29	=29	=29	=29	=29	=29	=29	=29	=29	=29	=29	=29	=29	=29	=29	=29	=29
!	!	!	!LO:TX:t=P:problem:t. 29-30 zapisane repetycją	!	!	!	!	!	!	!	!LO:TX:a:t=16	!	!LO:TX:a:t=8	!	!	!
4AA/	.	.	8a/Lyy	.	4.cc#\	.	2A\	O-	2c#\	O-	00r	.	00r	.	.	.
.	.	.	8e/yy	.	.	.	.	.	.	.	.	.	.	.	.	.
4A\	x 3	.	8a/yy	.	.	.	.	.	.	.	.	.	.	.	.	.
.	.	.	8e/Jyy	.	16dd\LL	.	.	.	.	.	.	.	.	.	.	.
.	.	.	.	.	16cc#\JJ	.	.	.	.	.	.	.	.	.	.	.
4G#X\	x 3	.	8g#X/Lyy	.	4b\	.	4G#X\	-ra	4B\	-ra	.	.	.	.	.	.
.	.	.	8e/yy	.	.	.	.	.	.	.	.	.	.	.	.	.
4A\	x 3	.	8a/yy	.	4cc#\	.	4A\	pro	4c#\	pro	.	.	.	.	.	.
.	.	.	8e/Jyy	.	.	.	.	.	.	.	.	.	.	.	.	.
=30	=30	=30	=30	=30	=30	=30	=30	=30	=30	=30	=30	=30	=30	=30	=30	=30
4.B\	x 3	.	8b/Lyy	.	8dd\L	.	4.B\	no-	(4.d\	no-	.	.	.	.	.	.
.	.	.	8e/yy	.	8gg#X\	.	.	.	.	.	.	.	.	.	.	.
.	.	.	8dd/yy	.	8bb\	.	.	.	.	.	.	.	.	.	.	.
8A\	x 3	.	8e/Jyy	.	8aa\J	.	8A\	.	8c#\)	.	.	.	.	.	.	.
4E\	5 3	.	8b/Lyy	.	8gg#X\L	.	4G#X\	-bis	4B\	-bis	.	.	.	.	.	.
.	.	.	8e/yy	.	8ff#\	.	.	.	.	.	.	.	.	.	.	.
4EE/	.	.	8g#X/yy	.	8ee\	.	4r	.	4r	.	.	.	.	.	.	.
.	.	.	8b/Jyy	.	8dd\J	.	.	.	.	.	.	.	.	.	.	.
!	!	!	!LO:LB:g=orignal	!	!LO:LB:g=original	!	!LO:LB:g=original	!	!LO:LB:g=original	!	!	!	!	!	!	!
=31	=31	=31	=31	=31	=31	=31	=31	=31	=31	=31	=31	=31	=31	=31	=31	=31
4AA/	.	.	8a\L	.	8cc#\L	.	4A\	O-	(4c#\	O-	.	.	.	.	00r	00r
.	.	.	8cc#\	.	8ee\	.	.	.	.	.	.	.	.	.	.	.
4A\	.	.	8ff#\	.	8aa\	.	4c#\	-ra	4e\)	.	.	.	.	.	.	.
.	.	.	8ee\J	.	8gg#X\J	.	.	.	.	.	.	.	.	.	.	.
4G#X\	.	.	8dd\L	.	8ff#\L	.	4B\	pro	4d\	-ra	.	.	.	.	.	.
.	.	.	8cc#\	.	8ee\	.	.	.	.	.	.	.	.	.	.	.
4A\	.	.	8b\	.	8dd\	.	4A\	.	4c#\	pro	.	.	.	.	.	.
.	.	.	8a\J	.	8cc#\J	.	.	.	.	.	.	.	.	.	.	.
=32	=32	=32	=32	=32	=32	=32	=32	=32	=32	=32	=32	=32	=32	=32	=32	=32
4E\	.	.	4.ee\	.	4.ee\	.	4.c#\	no-	4.e\	no-	.	.	.	.	.	.
4EE/	.	.	.	.	.	.	.	.	.	.	.	.	.	.	.	.
.	.	.	8cc#\	.	8cc#\	.	8A\	.	8c#\	.	.	.	.	.	.	.
!	!	!	!	!	!	!	!LO:SIC:v:s=4G#\	!	!	!	!	!	!	!	!	!
4E\	.	.	4b\	.	4b\	.	4G\	-bis	4B\	-bis	.	.	.	.	.	.
4r	.	.	4r	.	4r	.	4r	.	4r	.	.	.	.	.	.	.
=33	=33	=33	=33	=33	=33	=33	=33	=33	=33	=33	=33	=33	=33	=33	=33	=33
!	!	!	!	!	!	!	!LO:TX:a:t=Solo	!	!LO:TX:a:t=12	!	!	!	!	!	!	!
4EE/	.	.	8r	.	8r	.	(4E\	Re-	00r	.	00r	.	00r	.	.	.
.	.	.	8g#X/L	.	8eeL 8b\	.	.	.	.	.	.	.	.	.	.	.
4r	.	.	8g#/	.	8ee 8b\	.	8F#\L	.	.	.	.	.	.	.	.	.
.	.	.	8g#/J	.	8eeJ 8b\	.	8G#X\J)	.	.	.	.	.	.	.	.	.
4E\	.	.	8r	.	8r	.	8A\L	-gi-	.	.	.	.	.	.	.	.
.	.	.	8g#/L	.	8eeL 8b\	.	8B\	.	.	.	.	.	.	.	.	.
4r	.	.	8g#/	.	8ee 8b\	.	8c#\	-na	.	.	.	.	.	.	.	.
.	.	.	8g#/J	.	8eeJ 8b\	.	8d\J	.	.	.	.	.	.	.	.	.
=34	=34	=34	=34	=34	=34	=34	=34	=34	=34	=34	=34	=34	=34	=34	=34	=34
4EE/	.	.	8r	.	8r	.	4.e\	Vir-	.	.	.	.	.	.	.	.
!	!	!	!LO:SIC:v:s=8g#/L	!	!	!	!	!	!	!	!	!	!	!	!	!
.	.	.	8g/L	.	8eeL 8b\	.	.	.	.	.	.	.	.	.	.	.
!	!	!	!LO:SIC:v:s=8g#/	!	!	!	!	!	!	!	!	!	!	!	!	!
4r	.	.	8g/	.	8ee 8b\	.	.	.	.	.	.	.	.	.	.	.
!	!	!	!LO:SIC:v:s=8g#/J	!	!	!	!	!	!	!	!	!	!	!	!	!
.	.	.	8g/J	.	8eeJ 8b\	.	8E/	-gi-	.	.	.	.	.	.	.	.
4E\	.	.	8r	.	8r	.	4E/	-num	.	.	.	.	.	.	.	.
!	!	!	!LO:SIC:v:s=8g#/L	!	!	!	!	!	!	!	!	!	!	!	!	!
.	.	.	8g/L	.	8eeL 8b\	.	.	.	.	.	.	.	.	.	.	.
!	!	!	!LO:SIC:v:s=8g#/	!	!	!	!	!	!	!	!	!	!	!	!	!
4r	.	.	8g/	.	8ee 8b\	.	4r	.	.	.	.	.	.	.	.	.
!	!	!	!LO:SIC:v:s=8g#/J	!	!	!	!	!	!	!	!	!	!	!	!	!
.	.	.	8g/J	.	8eeJ 8b\	.	.	.	.	.	.	.	.	.	.	.
=35	=35	=35	=35	=35	=35	=35	=35	=35	=35	=35	=35	=35	=35	=35	=35	=35
4EE/	.	.	8r	.	8r	.	(4E\	O-	.	.	.	.	.	.	00r	00r
!	!	!	!LO:SIC:v:n=2:s=8g#/	!	!	!	!	!	!	!	!	!	!	!	!	!
.	.	.	8bL 8g/	.	8dd\L	.	.	.	.	.	.	.	.	.	.	.
!	!	!	!LO:SIC:v:n=2:s=8g#/	!	!	!	!	!	!	!	!	!	!	!	!	!
4r	.	.	8b 8g/	.	8dd\	.	8F#\L	.	.	.	.	.	.	.	.	.
!	!	!	!LO:SIC:v:n=2:s=8g#/	!	!	!	!LO:SIC:v:s=8G#\J)	!	!	!	!	!	!	!	!	!
.	.	.	8bJ 8g/	.	8dd\J	.	8G\J)	.	.	.	.	.	.	.	.	.
4E\	.	.	8r	.	8r	.	4A\	-ra	.	.	.	.	.	.	.	.
!	!	!	!LO:SIC:v:n=2:s=8g#/	!	!	!	!	!	!	!	!	!	!	!	!	!
.	.	.	8bL 8g/	.	8dd\L	.	.	.	.	.	.	.	.	.	.	.
!	!	!	!LO:SIC:v:n=2:s=8g#/	!	!	!	!	!	!	!	!	!	!	!	!	!
4r	.	.	8b 8g/	.	8dd\	.	8B\L	pro	.	.	.	.	.	.	.	.
!	!	!	!LO:SIC:v:n=2:s=8g#/	!	!	!	!	!	!	!	!	!	!	!	!	!
.	.	.	8bJ 8g/	.	8dd\J	.	8c#\J	.	.	.	.	.	.	.	.	.
!	!	!	!	!	!	!	!LO:LB:g=original	!	!	!	!	!	!	!	!	!
=36	=36	=36	=36	=36	=36	=36	=36	=36	=36	=36	=36	=36	=36	=36	=36	=36
4EE/	.	.	8r	.	8r	.	(4.d\	no-	.	.	.	.	.	.	.	.
!	!	!	!LO:SIC:v:n=2:s=8g#/	!	!	!	!	!	!	!	!	!	!	!	!	!
.	.	.	8bL 8g/	.	8dd\L	.	.	.	.	.	.	.	.	.	.	.
!	!	!	!LO:SIC:v:n=2:s=8g#/	!	!	!	!	!	!	!	!	!	!	!	!	!
4r	.	.	8b 8g/	.	8dd\	.	.	.	.	.	.	.	.	.	.	.
!	!	!	!LO:SIC:v:n=2:s=8g#/	!	!	!	!	!	!	!	!	!	!	!	!	!
.	.	.	8bJ 8g/	.	8dd\J	.	8B\)	.	.	.	.	.	.	.	.	.
!	!	!	!LO:LB:g=original	!	!	!	!	!	!	!	!	!	!	!	!	!
4E\	.	.	8r	.	8r	.	4G#X\	-bis	.	.	.	.	.	.	.	.
!	!	!	!LO:SIC:v:n=2:s=8g#/	!	!	!	!	!	!	!	!	!	!	!	!	!
.	.	.	8bL 8g/	.	8dd\L	.	.	.	.	.	.	.	.	.	.	.
!	!	!	!LO:SIC:v:n=2:s=8g#/	!	!	!	!	!	!	!	!	!	!	!	!	!
4r	.	.	8b 8g/	.	8dd\	.	4r	.	.	.	.	.	.	.	.	.
!	!	!	!LO:SIC:v:n=2:s=8g#/	!	!	!	!	!	!	!	!	!	!	!	!	!
.	.	.	8bJ 8g/	.	8dd\J	.	.	.	.	.	.	.	.	.	.	.
!	!	!	!	!	!	!	!	!	!	!	!	!	!LO:LB:g=original	!	!	!
=37	=37	=37	=37	=37	=37	=37	=37	=37	=37	=37	=37	=37	=37	=37	=37	=37
4AA/	.	.	8r	.	8r	.	00r	.	00r	.	00r	.	(4a\	Re-	.	.
.	.	.	8cc#\L	.	8eeL 8a\	.	.	.	.	.	.	.	.	.	.	.
4r	.	.	8cc#\	.	8ee 8a\	.	.	.	.	.	.	.	8b\L	.	.	.
.	.	.	8cc#\J	.	8eeJ 8a\	.	.	.	.	.	.	.	8cc#\J)	.	.	.
!	!	!	!	!	!LO:LB:g=original	!	!	!	!	!	!	!	!	!	!	!
4A\	.	.	8r	.	8r	.	.	.	.	.	.	.	8dd\L	-gi-	.	.
.	.	.	8cc#\L	.	8eeL 8a\	.	.	.	.	.	.	.	8ee\J	.	.	.
4r	.	.	8cc#\	.	8ee 8a\	.	.	.	.	.	.	.	8ff#\L	-na	.	.
.	.	.	8cc#\J	.	8eeJ 8a\	.	.	.	.	.	.	.	8gg#X\J	.	.	.
!LO:LB:g=origianl	!	!	!	!	!	!	!	!	!	!	!	!	!	!	!	!
=38	=38	=38	=38	=38	=38	=38	=38	=38	=38	=38	=38	=38	=38	=38	=38	=38
4AA/	.	.	8r	.	8r	.	.	.	.	.	.	.	4.aa\	Vir-	.	.
.	.	.	8cc#\L	.	8eeL 8a\	.	.	.	.	.	.	.	.	.	.	.
4r	.	.	8cc#\	.	8ee 8a\	.	.	.	.	.	.	.	.	.	.	.
.	.	.	8cc#\J	.	8eeJ 8a\	.	.	.	.	.	.	.	8a\	-gi-	.	.
4A\	.	.	8r	.	8r	.	.	.	.	.	.	.	4a\	-num	.	.
.	.	.	8cc#\L	.	8eeL 8a\	.	.	.	.	.	.	.	.	.	.	.
4r	.	.	8cc#\	.	8ee 8a\	.	.	.	.	.	.	.	4r	.	.	.
.	.	.	8cc#\J	.	8eeJ 8a\	.	.	.	.	.	.	.	.	.	.	.
=39	=39	=39	=39	=39	=39	=39	=39	=39	=39	=39	=39	=39	=39	=39	=39	=39
4AA/	.	.	8r	.	8r	.	.	.	.	.	.	.	(4a\	O-	00r	00r
.	.	.	8cc#L 8gn/	.	8eeL 8a\	.	.	.	.	.	.	.	.	.	.	.
4r	.	.	8cc# 8g/	.	8ee 8a\	.	.	.	.	.	.	.	8b\L	.	.	.
.	.	.	8cc#J 8g/	.	8eeJ 8a\	.	.	.	.	.	.	.	8cc#\J)	.	.	.
4A\	.	.	8r	.	8r	.	.	.	.	.	.	.	4dd\	-ra	.	.
.	.	.	8cc#L 8g/	.	8eeL 8a\	.	.	.	.	.	.	.	.	.	.	.
4r	.	.	8cc# 8g/	.	8ee 8a\	.	.	.	.	.	.	.	8ee\L	pro	.	.
.	.	.	8cc#J 8g/	.	8eeJ 8a\	.	.	.	.	.	.	.	8ff#\J	.	.	.
=40	=40	=40	=40	=40	=40	=40	=40	=40	=40	=40	=40	=40	=40	=40	=40	=40
4AA/	.	.	8r	.	8r	.	.	.	.	.	.	.	(4.ggn\	no-	.	.
.	.	.	8cc#L 8g/	.	8eeL 8a\	.	.	.	.	.	.	.	.	.	.	.
4r	.	.	8cc# 8g/	.	8ee 8a\	.	.	.	.	.	.	.	.	.	.	.
.	.	.	8cc#J 8g/	.	8eeJ 8a\	.	.	.	.	.	.	.	8ee\)	.	.	.
4A\	.	.	8r	.	8r	.	.	.	.	.	.	.	4cc#\	-bis	.	.
.	.	.	8cc#L 8g/	.	8eeL 8a\	.	.	.	.	.	.	.	.	.	.	.
4r	.	.	8cc# 8g/	.	8ee 8a\	.	.	.	.	.	.	.	4r	.	.	.
.	.	.	8cc#J 8g/	.	8eeJ 8a\	.	.	.	.	.	.	.	.	.	.	.
!	!	!	!	!	!	!	!	!	!	!	!	!	!LO:PB:g=original	!	!	!
=41	=41	=41	=41	=41	=41	=41	=41	=41	=41	=41	=41	=41	=41	=41	=41	=41
4D\	.	.	4dd 4f#/	.	4ff# 4a/	.	00r	.	00r	.	00r	.	8ff#\L	O-	.	.
.	.	.	.	.	.	.	.	.	.	.	.	.	8dd\	.	.	.
4r	.	.	4r	.	4r	.	.	.	.	.	.	.	8cc#\	.	.	.
.	.	.	.	.	.	.	.	.	.	.	.	.	8dd\J	.	.	.
4r	.	.	4r	.	4r	.	.	.	.	.	.	.	8a\L	.	.	.
.	.	.	.	.	.	.	.	.	.	.	.	.	8gg\	.	.	.
4A\	.	.	4ee 4a\	.	4gg 4a/	.	.	.	.	.	.	.	8ee\	.	.	.
.	.	.	.	.	.	.	.	.	.	.	.	.	8cc#\J	.	.	.
!	!	!	!LO:LB:g=original	!	!	!	!	!	!	!	!	!	!	!	!	!
=42	=42	=42	=42	=42	=42	=42	=42	=42	=42	=42	=42	=42	=42	=42	=42	=42
4D\	.	.	4dd 4f#/	.	4ff# 4a/	.	.	.	.	.	.	.	8ff#\L	.	.	.
.	.	.	.	.	.	.	.	.	.	.	.	.	8dd\	.	.	.
4r	.	.	4r	.	4r	.	.	.	.	.	.	.	8cc#\	.	.	.
.	.	.	.	.	.	.	.	.	.	.	.	.	8dd\J	.	.	.
4r	.	.	4r	.	4r	.	.	.	.	.	.	.	8a\L	.	.	.
.	.	.	.	.	.	.	.	.	.	.	.	.	8gg\	.	.	.
4A\	.	.	4ee 4a\	.	4gg 4a/	.	.	.	.	.	.	.	8ee\	.	.	.
.	.	.	.	.	.	.	.	.	.	.	.	.	8cc#\J	.	.	.
=43	=43	=43	=43	=43	=43	=43	=43	=43	=43	=43	=43	=43	=43	=43	=43	=43
8D/L	.	.	8dd\L	.	8ff#\L	.	.	.	.	.	.	.	8dd\L	.	0r	0r
8C#/	.	.	8cc#\	.	8cc#\	.	.	.	.	.	.	.	8cc#\	.	.	.
8D/	.	.	8dd\	.	8dd\	.	.	.	.	.	.	.	8dd\	.	.	.
8E/J	.	.	8ee\J	.	8ee\J	.	.	.	.	.	.	.	8ee\J	.	.	.
8F#\L	.	.	8ff#\L	.	8ff#\L	.	.	.	.	.	.	.	8ff#\L	-ra	.	.
8E\	.	.	8ee\	.	8ee\	.	.	.	.	.	.	.	8ee\J	.	.	.
8F#\	.	.	8ff#\	.	8ff#\	.	.	.	.	.	.	.	8ff#\L	pro	.	.
8G#X\J	.	.	8gg#X\J	.	8gg#X\J	.	.	.	.	.	.	.	8gg#X\J	.	.	.
!	!	!	!	!	!LO:LB:g=original	!	!	!	!	!	!	!	!	!	!	!
=44	=44	=44	=44	=44	=44	=44	=44	=44	=44	=44	=44	=44	=44	=44	=44	=44
!LO:TX:a:t=P:problem:mixedbeam	!	!	!LO:TX:a:t=P:problem:mixedbeam	!	!LO:TX:a:t=P:problem:mixedbeam	!	!	!	!	!	!	!	!	!	!	!
8A\L	.	.	8aa\L	.	8aa\L	.	.	.	.	.	.	.	4aa\	no-	.	.
8AA/	.	.	8a/	.	8a/	.	.	.	.	.	.	.	.	.	.	.
8AA/	.	.	8a/	.	8a/	.	.	.	.	.	.	.	4a/	-bis	.	.
8AA/J	.	.	8a/J	.	8a/J	.	.	.	.	.	.	.	.	.	.	.
4AA/	.	.	8a/L	.	8a/L	.	.	.	.	.	.	.	2r	.	.	.
.	.	.	8g/	.	8g/	.	.	.	.	.	.	.	.	.	.	.
4r	.	.	8e/	.	8e/	.	.	.	.	.	.	.	.	.	.	.
.	.	.	8c#/J	.	8c#/J	.	.	.	.	.	.	.	.	.	.	.
!	!	!	!	!	!	!	!	!	!	!	!LO:LB:g=original	!	!	!	!	!
=45	=45	=45	=45	=45	=45	=45	=45	=45	=45	=45	=45	=45	=45	=45	=45	=45
!	!	!	!	!LO:DY:a:t=for	!	!LO:DY:t=for	!	!	!	!	!	!	!	!	!	!
4D\	.	.	4d/	f	4d/	f	4D\	Re-	4d\	Re-	4d\	Re-	4dd\	Re-	4d/	4dd\
8F#\L	.	.	8.f#/L	.	8.f#/L	.	8F#\L	-gi-	8f#\L	-gi-	8f#\L	-gi-	8ff#\L	-gi-	8f#/L	8ff#\L
8D\J	.	.	.	.	.	.	8D\J	.	8d\J	.	8d\J	.	8dd\J	.	8d/J	8dd\J
.	.	.	16d/Jk	.	16d/Jk	.	.	.	.	.	.	.	.	.	.	.
!	!	!	!	!	!	!	!	!	!	!	!	!	!LO:LB:g=original	!	!	!
4A\	.	.	4a/	.	4a/	.	4A\	-na	4a\	-na	4a\	-na	4aa\	-na	4a/	4aa\
4r	.	.	4r	.	8r	.	4r	.	4r	.	4r	.	8r	.	4r	4r
.	.	.	.	.	8ff#\	p	.	.	.	.	.	.	8ff#\	San-	.	.
!LO:LB:g=original	!	!	!	!	!	!	!	!	!	!	!	!	!	!	!	!
=46	=46	=46	=46	=46	=46	=46	=46	=46	=46	=46	=46	=46	=46	=46	=46	=46
!	!	!	!	!LO:DY:t=p.	!	!	!	!	!	!	!	!	!	!	!	!
4r	.	.	16e/LL	p	8gg\L	.	4r	.	4r	.	4r	.	8gg\	-cto-	4r	4r
.	.	.	16a/	.	.	.	.	.	.	.	.	.	.	.	.	.
.	.	.	16g/	.	8ee\	.	.	.	.	.	.	.	8ee\	-rum	.	.
.	.	.	16a/JJ	.	.	.	.	.	.	.	.	.	.	.	.	.
*	*	*	*rep	*	*	*	*	*	*	*	*	*	*	*	*	*
8r	.	.	16e/LL	.	8b\	.	8r	.	8e\	O-	8g\	o-	8b\	O-	8r	8r
.	.	.	16a/	.	.	.	.	.	.	.	.	.	.	.	.	.
8A\	.	.	16g/	.	8cc#\J	.	8A\	O-	8e\	-mni-	8g\	-mni-	8cc#\	-mni-	8ee\	8gg\
.	.	.	16a/JJ	.	.	.	.	.	.	.	.	.	.	.	.	.
*	*	*	*Xrep	*	*	*	*	*	*	*	*	*	*	*	*	*
4D/	.	.	16d/LL	.	4.dd\	.	4d\	-ra	4f#\	-um	4a\	-um	8dd\	-um	4dd\	4ff#\
.	.	.	16a/	.	.	.	.	.	.	.	.	.	.	.	.	.
.	.	.	16f#/	.	.	.	.	.	.	.	.	.	8r	.	.	.
.	.	.	16a/JJ	.	.	.	.	.	.	.	.	.	.	.	.	.
*	*	*	*rep	*	*	*	*	*	*	*	*	*	*	*	*	*
!	!	!	!	!	!	!	!	!	!	!	!	!	!LO:TX:t=P:problem:brak 8r	!	!	!
4r	.	.	16d/LL	.	.	.	4r	.	4r	.	4r	.	8ryy	.	4r	4r
.	.	.	16a/	.	.	.	.	.	.	.	.	.	.	.	.	.
.	.	.	16f#/	.	16ee\LL	.	.	.	.	.	.	.	8ff#\	San-	.	.
.	.	.	16a/JJ	.	16ff#\JJ	.	.	.	.	.	.	.	.	.	.	.
*	*	*	*Xrep	*	*	*	*	*	*	*	*	*	*	*	*	*
=47	=47	=47	=47	=47	=47	=47	=47	=47	=47	=47	=47	=47	=47	=47	=47	=47
4r	.	.	16e/LL	.	8gg\L	.	4r	.	4r	.	4r	.	8gg\	-cto-	4r	4r
.	.	.	16a/	.	.	.	.	.	.	.	.	.	.	.	.	.
.	.	.	16g/	.	8ee\	.	.	.	.	.	.	.	8ee\	-rum	.	.
.	.	.	16a/JJ	.	.	.	.	.	.	.	.	.	.	.	.	.
*	*	*	*rep	*	*	*	*	*ij	*	*ij	*	*ij	*	*	*	*
8r	.	.	16e/LL	.	8b\	.	8r	.	8e\	O-	8g\	o-	8b\	o-	8r	8r
.	.	.	16a/	.	.	.	.	.	.	.	.	.	.	.	.	.
8A\	.	.	16g/	.	8cc#\J	.	8A\	O-	8e\	-mni-	8g\	-mni-	8cc#\	-mni-	8ee\	8gg\
.	.	.	16a/JJ	.	.	.	.	.	.	.	.	.	.	.	.	.
*	*	*	*Xrep	*	*	*	*	*	*	*	*	*	*	*	*	*
4D/	.	.	16d/LL	.	4.dd\	.	4d\	-ra	4f#\	-um	4a\	-um	4dd\	-um	4dd\	4ff#\
*	*	*	*	*	*	*	*	*Xij	*	*Xij	*	*Xij	*	*	*	*
.	.	.	16a/	.	.	.	.	.	.	.	.	.	.	.	.	.
.	.	.	16f#/	.	.	.	.	.	.	.	.	.	.	.	.	.
.	.	.	16a/JJ	.	.	.	.	.	.	.	.	.	.	.	.	.
*	*	*	*rep	*	*	*	*	*	*	*	*	*	*	*	*	*
4r	.	.	16d/LL	.	.	.	4r	.	4r	.	4r	.	4r	.	4r	4r
.	.	.	16a/	.	.	.	.	.	.	.	.	.	.	.	.	.
.	.	.	16f#/	.	16ee\LL	.	.	.	.	.	.	.	.	.	.	.
.	.	.	16a/JJ	.	16ff#\JJ	.	.	.	.	.	.	.	.	.	.	.
*	*	*	*Xrep	*	*	*	*	*	*	*	*	*	*	*	*	*
!	!	!	!LO:LB:g=original	!	!	!	!	!	!LO:LB:g=original	!	!	!	!	!	!	!
=48	=48	=48	=48	=48	=48	=48	=48	=48	=48	=48	=48	=48	=48	=48	=48	=48
2r	.	.	16e/LL	.	8gg\L	.	2r	.	2r	.	2r	.	8gg\L	O-	2r	2r
.	.	.	16a/	.	.	.	.	.	.	.	.	.	.	.	.	.
.	.	.	16g/	.	8ee\	.	.	.	.	.	.	.	8ee\J	.	.	.
.	.	.	16a/JJ	.	.	.	.	.	.	.	.	.	.	.	.	.
.	.	.	16d/LL	.	8ff#\	.	.	.	.	.	.	.	8ff#\L	-ra	.	.
.	.	.	16a/	.	.	.	.	.	.	.	.	.	.	.	.	.
.	.	.	16f#/	.	8dd\J	.	.	.	.	.	.	.	8dd\J	.	.	.
.	.	.	16a/JJ	.	.	.	.	.	.	.	.	.	.	.	.	.
!	!	!	!	!	!	!LO:HP:t=cres	!	!	!	!	!	!	!	!	!	!
8A\	.	.	16e/LL	.	8gg\L	<	8c#\L	O-	8e\L	O-	4a\	O-	8gg\L	O-	4a\	4ee\
!	!	!	!	!LO:HP:t=cres.	!	!	!	!	!	!	!	!	!	!	!	!
.	.	.	16a/	<	.	.	.	.	.	.	.	.	.	.	.	.
8r	.	.	16g/	.	8ee\	.	8A\J	.	8c#\J	.	.	.	8ee\J	.	.	.
.	.	.	16a/JJ	.	.	.	.	.	.	.	.	.	.	.	.	.
8D\	.	.	16d/LL	.	8ff#\	.	8d\L	-ra	4d\	-ra	4a\	-ra	8ff#\L	-ra	4dd\	4ff#\
.	.	.	16a/	.	.	.	.	.	.	.	.	.	.	.	.	.
8r	.	.	16f#/	.	8dd\J	.	8A\J	.	.	.	.	.	8dd\J	.	.	.
.	.	.	16a/JJ	.	.	.	.	.	.	.	.	.	.	.	.	.
!	!	!	!	!	!	!	!LO:LB:g=original	!	!	!	!	!	!LO:LB:g=original	!	!LO:LB:g=original	!LO:LB:g=original
=49	=49	=49	=49	=49	=49	=49	=49	=49	=49	=49	=49	=49	=49	=49	=49	=49
!LO:TX:a:t=P:problem:mixedbeam	!	!	!	!LO:DY:t=for	!LO:TX:a:t=P:problem:mixedbeam	!	!	!	!	!	!	!	!	!	!	!
8A\L	.	.	8a/L	f	8aa\L	.	8c#\	ra	8c#\	O-	8a\	O-	8aa\	O-	8a/L	8ee\L
!	!	!	!	!	!	!LO:DY:t=for	!	!	!	!	!	!	!	!	!	!
8AA/	.	.	8cc# 8e/	.	8a/	f	8A\	pro	8c#\	-ra	8a\	-ra	8a\	-ra	8a/	8ee\
8AA/	.	.	8cc# 8e/	.	8a/	.	8A\	no-	8c#\	pro	8a\	pro	8a\	pro	8a/	8ee\
8AA/J	.	.	8cc#J 8e/	.	8a/J	.	8A\	.	8c#\	no-	8a\	no-	8a\	no-	8a/J	8ee\J
4AA/	.	.	4cc# 4e/	.	4a/	.	4A\	-bis	4c#\	-bis	4a\	-bis	4a\	-bis	4a/	4ee\
4r	.	.	4r	.	4r	.	4r	.	4r	.	4r	.	4r	.	4r	4r
!	!	!	!	!	!LO:LB:g=original	!	!	!	!	!	!	!	!	!	!	!
=50	=50	=50	=50	=50	=50	=50	=50	=50	=50	=50	=50	=50	=50	=50	=50	=50
!	!	!	!	!	!	!LO:DY:t=for	!	!	!	!	!LO:TX:t=P:problem:t. 50-54 zapisane repetycją	!	!	!	!	!
4D\	.	.	4d/	.	4d/	f	4D\	Re-	4d\	Re-	4d\yy	Re-	4dd\	Re-	4d/	4dd\
8F#\L	.	.	8.f#/L	.	8.f#/L	.	8F#\L	-gi-	8f#\L	-gi-	8f#\Lyy	-gi-	8ff#\L	-gi-	8f#/L	8ff#\L
8D\J	.	.	.	.	.	.	8D\J	.	8d\J	.	8d\Jyy	.	8dd\J	.	8d/J	8dd\J
.	.	.	16d/Jk	.	16d/Jk	.	.	.	.	.	.	.	.	.	.	.
4A\	.	.	4a/	.	4a/	.	4A\	-na	4a\	-na	4a\yy	-na	4aa\	-na	4a/	4aa\
4r	.	.	4r	.	8r	.	4r	.	4r	.	4ryy	.	8r	.	4r	4r
.	.	.	.	.	8ff#\	p	.	.	.	.	.	.	8ff#\	San-	.	.
=51	=51	=51	=51	=51	=51	=51	=51	=51	=51	=51	=51	=51	=51	=51	=51	=51
!	!	!	!	!LO:DY:rj:t=p.	!	!	!	!	!	!	!	!	!	!	!	!
4r	.	.	16e/LL	p	8gg\L	.	4r	.	4r	.	4ryy	.	8gg\	-cto-	4r	4r
.	.	.	16a/	.	.	.	.	.	.	.	.	.	.	.	.	.
.	.	.	16g/	.	8ee\	.	.	.	.	.	.	.	8ee\	-rum	.	.
.	.	.	16a/JJ	.	.	.	.	.	.	.	.	.	.	.	.	.
*	*	*	*rep	*	*	*	*	*	*	*	*	*	*	*	*	*
8r	.	.	16e/LL	.	8b\	.	8r	.	8e\	O-	8g\yy	o-	8b\	O-	8r	8r
.	.	.	16a/	.	.	.	.	.	.	.	.	.	.	.	.	.
8A\	.	.	16g/	.	8cc#\J	.	8A\	O-	8e\	-mni-	8g\yy	-mni-	8cc#\	-mni-	8ee\	8gg\
.	.	.	16a/JJ	.	.	.	.	.	.	.	.	.	.	.	.	.
*	*	*	*Xrep	*	*	*	*	*	*	*	*	*	*	*	*	*
4D/	.	.	16d/LL	.	4.dd\	.	4d\	-ra	4f#\	-um	4a\yy	-um	8dd\	-um	4dd\	4ff#\
.	.	.	16a/	.	.	.	.	.	.	.	.	.	.	.	.	.
.	.	.	16f#/	.	.	.	.	.	.	.	.	.	8r	.	.	.
.	.	.	16a/JJ	.	.	.	.	.	.	.	.	.	.	.	.	.
*	*	*	*rep	*	*	*	*	*	*	*	*	*	*	*	*	*
4r	.	.	16d/LL	.	.	.	4r	.	4r	.	4ryy	.	8r	.	4r	4r
.	.	.	16a/	.	.	.	.	.	.	.	.	.	.	.	.	.
.	.	.	16f#/	.	16ee\LL	.	.	.	.	.	.	.	8ff#\	San-	.	.
.	.	.	16a/JJ	.	16ff#\JJ	.	.	.	.	.	.	.	.	.	.	.
*	*	*	*Xrep	*	*	*	*	*	*	*	*	*	*	*	*	*
=52	=52	=52	=52	=52	=52	=52	=52	=52	=52	=52	=52	=52	=52	=52	=52	=52
4r	.	.	16e/LL	.	8gg\L	.	4r	.	4r	.	4ryy	.	8gg\	-cto-	4r	4r
.	.	.	16a/	.	.	.	.	.	.	.	.	.	.	.	.	.
.	.	.	16g/	.	8ee\	.	.	.	.	.	.	.	8ee\	-rum	.	.
.	.	.	16a/JJ	.	.	.	.	.	.	.	.	.	.	.	.	.
*	*	*	*rep	*	*	*	*	*ij	*	*ij	*	*ij	*	*	*	*
8r	.	.	16e/LL	.	8b\	.	8r	.	8e\	O-	8g\yy	o-	8b\	o-	8r	8r
.	.	.	16a/	.	.	.	.	.	.	.	.	.	.	.	.	.
!	!	!	!	!	!	!	!	!	!	!	!	!	!LO:LB:g=original	!	!	!
8A\	.	.	16g/	.	8cc#\J	.	8A\	O-	8e\	-mni-	8g\yy	-mni-	8cc#\	-mni-	8ee\	8gg\
.	.	.	16a/JJ	.	.	.	.	.	.	.	.	.	.	.	.	.
*	*	*	*Xrep	*	*	*	*	*	*	*	*	*	*	*	*	*
4D/	.	.	16d/LL	.	4.dd\	.	4d\	-ra	4f#\	-um	4a\yy	-um	8dd\	-um	4dd\	4ff#\
*	*	*	*	*	*	*	*	*Xij	*	*Xij	*	*Xij	*	*	*	*
.	.	.	16a/	.	.	.	.	.	.	.	.	.	.	.	.	.
.	.	.	16f#/	.	.	.	.	.	.	.	.	.	8r	.	.	.
.	.	.	16a/JJ	.	.	.	.	.	.	.	.	.	.	.	.	.
*	*	*	*rep	*	*	*	*	*	*	*	*	*	*	*	*	*
4r	.	.	16d/LL	.	.	.	4r	.	4r	.	4ryy	.	4r	.	4r	4r
.	.	.	16a/	.	.	.	.	.	.	.	.	.	.	.	.	.
.	.	.	16f#/	.	16ee\LL	.	.	.	.	.	.	.	.	.	.	.
.	.	.	16a/JJ	.	16ff#\JJ	.	.	.	.	.	.	.	.	.	.	.
*	*	*	*Xrep	*	*	*	*	*	*	*	*	*	*	*	*	*
!LO:LB:g=original	!	!	!LO:LB:g=original	!	!	!	!	!	!LO:LB:g=original	!	!	!	!	!	!	!
=53	=53	=53	=53	=53	=53	=53	=53	=53	=53	=53	=53	=53	=53	=53	=53	=53
2r	.	.	16e/LL	.	8gg\L	.	2r	.	2r	.	2ryy	.	8gg\L	O-	2r	2r
.	.	.	16a/	.	.	.	.	.	.	.	.	.	.	.	.	.
.	.	.	16g/	.	8ee\	.	.	.	.	.	.	.	8ee\J	.	.	.
.	.	.	16a/JJ	.	.	.	.	.	.	.	.	.	.	.	.	.
.	.	.	16d/LL	.	8ff#\	.	.	.	.	.	.	.	8ff#\L	-ra	.	.
.	.	.	16a/	.	.	.	.	.	.	.	.	.	.	.	.	.
.	.	.	16f#/	.	8dd\J	.	.	.	.	.	.	.	8dd\J	.	.	.
.	.	.	16a/JJ	.	.	.	.	.	.	.	.	.	.	.	.	.
!	!	!	!	!	!	!LO:HP:t=cres	!	!	!	!	!	!	!	!	!	!
8A\	.	.	16e/LL	.	8gg\L	<	8c#\L	O-	8e\L	O-	4a\yy	O-	8gg\L	O-	4a\	4ee\
.	.	.	16a/	.	.	.	.	.	.	.	.	.	.	.	.	.
8r	.	.	16g/	.	8ee\	.	8A\J	.	8c#\J	.	.	.	8ee\J	.	.	.
.	.	.	16a/JJ	.	.	.	.	.	.	.	.	.	.	.	.	.
8D\	.	.	16d/LL	.	8ff#\	.	8d\L	-ra	4d\	-ra	4a\yy	-ra	8ff#\L	-ra	4dd\	4ff#\
.	.	.	16a/	.	.	.	.	.	.	.	.	.	.	.	.	.
8r	.	.	16f#/	.	8dd\J	.	8A\J	.	.	.	.	.	8dd\J	.	.	.
.	.	.	16a/JJ	.	.	.	.	.	.	.	.	.	.	.	.	.
!	!	!	!	!	!	!	!LO:LB:g=original	!	!	!	!	!	!	!	!	!
=54	=54	=54	=54	=54	=54	=54	=54	=54	=54	=54	=54	=54	=54	=54	=54	=54
!LO:TX:a:t=P:problem:mixedbeam	!	!	!	!LO:DY:t=for	!LO:TX:a:t=P:problem:mixedbeam	!	!	!	!	!	!	!	!	!	!	!
8A\L	.	.	8a/L	f	8aa\L	.	8c#\	ra	8c#\	O-	8a\yy	O-	8aa\	O-	8a/L	8ee\L
!	!	!	!	!	!	!LO:DY:t=for	!	!	!	!	!	!	!	!	!	!
8AA/	.	.	8cc# 8e/	.	8a/	f	8A\	pro	8c#\	-ra	8a\yy	-ra	8a\	-ra	8a/	8ee\
8AA/	.	.	8cc# 8e/	.	8a/	.	8A\	no-	8c#\	pro	8a\yy	pro	8a\	pro	8a/	8ee\
8AA/J	.	.	8cc#J 8e/	.	8a/J	.	8A\	.	8c#\	no-	8a\yy	no-	8a\	no-	8a/J	8ee\J
4AA/	.	.	4cc# 4e/	.	4a/	.	4A\	-bis	4c#\	-bis	4a\yy	-bis	4a\	-bis	4a/	4ee\
4r	.	.	4r	.	4r	.	4r	.	4r	.	4ryy	.	4r	.	4r	4r
=55	=55	=55	=55	=55	=55	=55	=55	=55	=55	=55	=55	=55	=55	=55	=55	=55
!	!	!	!LO:TX:a:rj:t=Tutti	!	!LO:TX:a:rj:t=Tutti	!	!	!	!	!	!	!	!	!	!	!
8D\L	.	.	16d/LL	.	8dddL 8dd\	.	4D/	Re-	4d\	Re-	4a\	Re-	4ff#\	Re-	2ff#\	2aa\
.	.	.	16a/	.	.	.	.	.	.	.	.	.	.	.	.	.
8AA\	.	.	16f#/	.	8aa\	.	.	.	.	.	.	.	.	.	.	.
.	.	.	16a/JJ	.	.	.	.	.	.	.	.	.	.	.	.	.
*	*	*	*rep	*	*	*	*	*	*	*	*	*	*	*	*	*
8F#\	.	.	16d/LL	.	8aa\	.	8d\	-gi-	8d\	-gi-	8a\	-gi-	8ff#\	-gi-	.	.
.	.	.	16a/	.	.	.	.	.	.	.	.	.	.	.	.	.
8AA\J	.	.	16f#/	.	8aa\J	.	8d\	-na	8d\	-na	8a\	-na	8ff#\	-na	.	.
.	.	.	16a/JJ	.	.	.	.	.	.	.	.	.	.	.	.	.
*	*	*	*Xrep	*	*	*	*	*	*	*	*	*	*	*	*	*
*	*	*	*rep	*	*	*	*	*	*	*	*	*	*	*	*	*
8D\L	.	.	16d/LL	.	4aa\	.	8d\L	San-	4d\	San-	4a\	S(an)-	4ff#\	san-	2dd\	2ff#\
.	.	.	16a/	.	.	.	.	.	.	.	.	.	.	.	.	.
8AA\	.	.	16f#/	.	.	.	8A\J	-cto-	.	.	.	.	.	.	.	.
.	.	.	16a/JJ	.	.	.	.	.	.	.	.	.	.	.	.	.
*	*	*	*Xrep	*	*	*	*	*	*	*	*	*	*	*	*	*
*	*	*	*rep	*	*	*	*	*	*	*	*	*	*	*	*	*
8F#\	.	.	16d/LL	.	16gg\LL	.	8F#\	-rum	8c#\	-cto-	8a\	-cto-	8ee\	-cto-	.	.
.	.	.	16a/	.	16ff#\	.	.	.	.	.	.	.	.	.	.	.
8AA\J	.	.	16f#/	.	16ee\	.	8D\	o-	8d\	-r(um)	8a\	-r(um)	8ff#\	-rum	.	.
.	.	.	16a/JJ	.	16dd\JJ	.	.	.	.	.	.	.	.	.	.	.
*	*	*	*Xrep	*	*	*	*	*	*	*	*	*	*	*	*	*
!	!	!	!	!	!LO:LB:g=original	!	!	!	!	!	!	!	!LO:LB:g=original	!	!	!
=56	=56	=56	=56	=56	=56	=56	=56	=56	=56	=56	=56	=56	=56	=56	=56	=56
8E\L	.	.	16e/LL	.	8dd\L	.	4A\	-mni-	8d\	O-	8a\	O-	8ff#\L	O-	8dd\L	8ff#\L
.	.	.	16a/	.	.	.	.	.	.	.	.	.	.	.	.	.
8AA\	.	.	16g/	.	8cc#\J	.	.	.	8e\	-mni-	8a\	-mni-	8gg\J	-mni-	8ee\J	8gg\J
.	.	.	16a/JJ	.	.	.	.	.	.	.	.	.	.	.	.	.
*	*	*	*rep	*	*	*	*	*	*	*	*	*	*	*	*	*
8G\	.	.	16e/LL	.	4cc#\	.	4AA/	-um	4c#\	-um	4a\	-(um)	4ee\	-um	4a\	4ee\
.	.	.	16a/	.	.	.	.	.	.	.	.	.	.	.	.	.
8AA\J	.	.	16g/	.	.	.	.	.	.	.	.	.	.	.	.	.
.	.	.	16a/JJ	.	.	.	.	.	.	.	.	.	.	.	.	.
*	*	*	*Xrep	*	*	*	*	*	*	*	*	*	*	*	*	*
*	*	*	*rep	*	*	*	*	*	*	*	*	*	*	*	*	*
8E\L	.	.	16e/LL	.	16cc#\LL	.	2r	.	2r	.	2r	.	2r	.	2r	2r
.	.	.	16a/	.	16dd\	.	.	.	.	.	.	.	.	.	.	.
8AA\	.	.	16g/	.	16ee\	.	.	.	.	.	.	.	.	.	.	.
.	.	.	16a/JJ	.	16ff#\JJ	.	.	.	.	.	.	.	.	.	.	.
*	*	*	*Xrep	*	*	*	*	*	*	*	*	*	*	*	*	*
*	*	*	*rep	*	*	*	*	*	*	*	*	*	*	*	*	*
8G\	.	.	16e/LL	.	16gg\LL	.	.	.	.	.	.	.	.	.	.	.
.	.	.	16a/	.	16aa\	.	.	.	.	.	.	.	.	.	.	.
8AA\J	.	.	16g/	.	16bb\	.	.	.	.	.	.	.	.	.	.	.
.	.	.	16a/JJ	.	16ccc#\JJ	.	.	.	.	.	.	.	.	.	.	.
*	*	*	*Xrep	*	*	*	*	*	*	*	*	*	*	*	*	*
!	!	!	!	!	!	!	!	!	!LO:LB:g=original	!	!	!	!	!	!LO:LB:g=original	!LO:LB:g=original
=57	=57	=57	=57	=57	=57	=57	=57	=57	=57	=57	=57	=57	=57	=57	=57	=57
*	*	*	*	*	*	*	*	*	*	*ij	*	*	*	*	*	*
!	!	!	!	!	!	!	!	!	!	!	!LO:TX:t=P:problem:t. 57-58 zapisane repetycją	!	!	!	!	!
8D\L	.	.	16d/LL	.	8ddd\L	.	4D/	Re-	4d\	Re-	4a\yy	Re-	4ff#\	Re-	2ff#\	2aa\
.	.	.	16a/	.	.	.	.	.	.	.	.	.	.	.	.	.
8AA\	.	.	16f#/	.	8aa\	.	.	.	.	.	.	.	.	.	.	.
.	.	.	16a/JJ	.	.	.	.	.	.	.	.	.	.	.	.	.
*	*	*	*rep	*	*	*	*	*	*	*	*	*	*	*	*	*
8F#\	.	.	16d/LL	.	8aa\	.	8d\	-gi-	8d\	-gi-	8a\yy	-gi-	8ff#\	-gi-	.	.
.	.	.	16a/	.	.	.	.	.	.	.	.	.	.	.	.	.
8AA\J	.	.	16f#/	.	8aa\J	.	8d\	-na	8d\	-na	8a\yy	-na	8ff#\	-na	.	.
.	.	.	16a/JJ	.	.	.	.	.	.	.	.	.	.	.	.	.
*	*	*	*Xrep	*	*	*	*	*	*	*	*	*	*	*	*	*
*	*	*	*rep	*	*	*	*	*	*	*	*	*	*	*	*	*
8D\L	.	.	16d/LL	.	16gg#X\LL	.	8d\L	San-	4d\	San-	4a\yy	S(an)-	4ff#\	San-	2dd\	2ff#\
.	.	.	16a/	.	16aa\	.	.	.	.	.	.	.	.	.	.	.
8AA\	.	.	16f#/	.	16bb\	.	8A\J	-cto	.	.	.	.	.	.	.	.
.	.	.	16a/JJ	.	16aa\JJ	.	.	.	.	.	.	.	.	.	.	.
*	*	*	*Xrep	*	*	*	*	*	*	*	*	*	*	*	*	*
*	*	*	*rep	*	*	*	*	*	*	*	*	*	*	*	*	*
8F#\	.	.	16d/LL	.	16ggn\LL	.	8F#\	r(um)	8c#\	-cto-	8a\yy	-cto-	8ee\	-cto-	.	.
.	.	.	16a/	.	16ff#\	.	.	.	.	.	.	.	.	.	.	.
8AA\J	.	.	16f#/	.	16ee\	.	8D\	o-	8d\	-r(um)	8a\yy	-r(um)	8ff#\	-rum	.	.
.	.	.	16a/JJ	.	16dd\JJ	.	.	.	.	.	.	.	.	.	.	.
*	*	*	*Xrep	*	*	*	*	*	*	*	*	*	*	*	*	*
!	!	!	!LO:LB:g=original	!	!	!	!LO:LB:g=original	!	!	!	!	!	!	!	!	!
=58	=58	=58	=58	=58	=58	=58	=58	=58	=58	=58	=58	=58	=58	=58	=58	=58
8E\L	.	.	16e/LL	.	8dd\L	.	4A\	-mni-	8d\	O-	8a\yy	O-	8ff#\	O-	8dd\L	8ff#\L
.	.	.	16a/	.	.	.	.	.	.	.	.	.	.	.	.	.
8AA\	.	.	16g/	.	8cc#\J	.	.	.	8e\	-mni-	8a\yy	-mni-	8gg\	-mni-	8ee\J	8gg\J
.	.	.	16a/JJ	.	.	.	.	.	.	.	.	.	.	.	.	.
*	*	*	*rep	*	*	*	*	*	*	*	*	*	*	*	*	*
8G\	.	.	16e/LL	.	4cc#\	.	4AA/	-um	4c#\	-um	4a\yy	-(um)	4ee\	-um	4a\	4ee\
*	*	*	*	*	*	*	*	*	*	*Xij	*	*	*	*	*	*
.	.	.	16a/	.	.	.	.	.	.	.	.	.	.	.	.	.
8AA\J	.	.	16g/	.	.	.	.	.	.	.	.	.	.	.	.	.
.	.	.	16a/JJ	.	.	.	.	.	.	.	.	.	.	.	.	.
*	*	*	*Xrep	*	*	*	*	*	*	*	*	*	*	*	*	*
*	*	*	*rep	*	*	*	*	*	*	*	*	*	*	*	*	*
8E\L	.	.	16e/LL	.	16cc#\LL	.	2r	.	2r	.	2ryy	.	2r	.	2r	2r
.	.	.	16a/	.	16dd\	.	.	.	.	.	.	.	.	.	.	.
8AA\	.	.	16g/	.	16ee\	.	.	.	.	.	.	.	.	.	.	.
.	.	.	16a/JJ	.	16ff#\JJ	.	.	.	.	.	.	.	.	.	.	.
*	*	*	*Xrep	*	*	*	*	*	*	*	*	*	*	*	*	*
*	*	*	*rep	*	*	*	*	*	*	*	*	*	*	*	*	*
8G\	.	.	16e/LL	.	16gg\LL	.	.	.	.	.	.	.	.	.	.	.
.	.	.	16a/	.	16aa\	.	.	.	.	.	.	.	.	.	.	.
8AA\J	.	.	16g/	.	16bb\	.	.	.	.	.	.	.	.	.	.	.
.	.	.	16a/JJ	.	16ccc#\JJ	.	.	.	.	.	.	.	.	.	.	.
*	*	*	*Xrep	*	*	*	*	*	*	*	*	*	*	*	*	*
!	!	!	!	!	!	!	!	!	!	!	!LO:LB:g=original	!	!	!	!	!
=59	=59	=59	=59	=59	=59	=59	=59	=59	=59	=59	=59	=59	=59	=59	=59	=59
*	*	*	*tremolo	*	*	*	*	*	*	*	*	*	*	*	*	*
8D/L	.	.	16f#LL 16A/	.	16ddd\LL	.	4d\	O-	4d\	O-	4a\	O-	4ff#\	O-	4dd\	4ff#\
.	.	.	16f# 16A/	.	16ddd\	.	.	.	.	.	.	.	.	.	.	.
8AA/	.	.	16f# 16A/	.	16aa\	.	.	.	.	.	.	.	.	.	.	.
.	.	.	16f#JJ 16A/	.	16aa\JJ	.	.	.	.	.	.	.	.	.	.	.
8E/	.	.	16gLL 16A/	.	16ccc#\LL	.	4A\	-ra	8e\L	-ra	4a\	-ra	8gg\L	-ra	8ee\L	8gg\L
.	.	.	16g 16A/	.	16ccc#\	.	.	.	.	.	.	.	.	.	.	.
8AA/J	.	.	16g 16A/	.	16aa\	.	.	.	8c#\J	.	.	.	8ee\J	.	8a\J	8ee\J
.	.	.	16gJJ 16A/	.	16aa\JJ	.	.	.	.	.	.	.	.	.	.	.
*rep	*	*	*	*	*	*	*	*ij	*	*ij	*	*ij	*	*	*	*
8D/L	.	.	16f#LL 16A/	.	16ddd\LL	.	4d\	O-	4d\	O-	4a\	O-	4ff#\	O-	4dd\	4ff#\
.	.	.	16f# 16A/	.	16ddd\	.	.	.	.	.	.	.	.	.	.	.
8AA/	.	.	16f# 16A/	.	16aa\	.	.	.	.	.	.	.	.	.	.	.
.	.	.	16f#JJ 16A/	.	16aa\JJ	.	.	.	.	.	.	.	.	.	.	.
8E/	.	.	16gLL 16A/	.	16ccc#\LL	.	4A\	-ra	8e\L	-ra	4a\	-ra	8gg\L	-ra	8ee\L	8gg\L
.	.	.	16g 16A/	.	16ccc#\	.	.	.	.	.	.	.	.	.	.	.
8AA/J	.	.	16g 16A/	.	16aa\	.	.	.	8c#\J	.	.	.	8ee\J	.	8a\J	8ee\J
.	.	.	16gJJ 16A/	.	16aa\JJ	.	.	.	.	.	.	.	.	.	.	.
*Xrep	*	*	*	*	*	*	*	*	*	*	*	*	*	*	*	*
!LO:LB:g=original	!	!	!	!	!LO:LB:g=original	!	!	!	!	!	!	!	!LO:LB:g=original	!	!	!
=60	=60	=60	=60	=60	=60	=60	=60	=60	=60	=60	=60	=60	=60	=60	=60	=60
8D/L	.	.	16f#LL 16A/	.	16ddd\LL	.	4d\	O-	4d\	O-	4a\	O-	4ff#\	O-	4dd\	4ff#\
.	.	.	16f# 16A/	.	16ddd\	.	.	.	.	.	.	.	.	.	.	.
8AA/	.	.	16f# 16A/	.	16aa\	.	.	.	.	.	.	.	.	.	.	.
.	.	.	16f#JJ 16A/	.	16aa\JJ	.	.	.	.	.	.	.	.	.	.	.
8E/	.	.	16gLL 16A/	.	16ccc#\LL	.	4A\	-ra	8e\L	-ra	4a\	-ra	8gg\L	-ra	8ee\L	8gg\L
.	.	.	16g 16A/	.	16ccc#\	.	.	.	.	.	.	.	.	.	.	.
8AA/J	.	.	16g 16A/	.	16aa\	.	.	.	8c#\J	.	.	.	8ee\J	.	8a\J	8ee\J
.	.	.	16gJJ 16A/	.	16aa\JJ	.	.	.	.	.	.	.	.	.	.	.
8D/L	.	.	16f#LL 16A/	.	16ddd\LL	.	4d\	O-	4d\	O-	4a\	O-	4ff#\	O-	4dd\	4ff#\
.	.	.	16f# 16A/	.	16ddd\	.	.	.	.	.	.	.	.	.	.	.
8AA/	.	.	16f# 16A/	.	16aa\	.	.	.	.	.	.	.	.	.	.	.
.	.	.	16f#JJ 16A/	.	16aa\JJ	.	.	.	.	.	.	.	.	.	.	.
8E/	.	.	16gLL 16A/	.	16ccc#\LL	.	4A\	-ra	8e\L	-ra	4a\	-ra	8gg\L	-ra	8ee\L	8gg\L
*	*	*	*	*	*	*	*	*Xij	*	*Xij	*	*Xij	*	*	*	*
.	.	.	16g 16A/	.	16ccc#\	.	.	.	.	.	.	.	.	.	.	.
8AA/J	.	.	16g 16A/	.	16aa\	.	.	.	8c#\J	.	.	.	8ee\J	.	8a\J	8ee\J
.	.	.	16gJJ 16A/	.	16aa\JJ	.	.	.	.	.	.	.	.	.	.	.
!	!	!	!	!	!	!	!	!	!LO:LB:g=original	!	!	!	!	!	!	!
=61	=61	=61	=61	=61	=61	=61	=61	=61	=61	=61	=61	=61	=61	=61	=61	=61
*	*	*	*	*	*tremolo	*	*	*	*	*	*	*	*	*	*	*
8D\L	.	.	16f#LL 16A/	.	16ddd\LL	.	4d\	ra	4d\	O-	4a\	O-	4ff#\	O-	4dd\	4ff#\
.	.	.	16f# 16A/	.	16ddd\	.	.	.	.	.	.	.	.	.	.	.
8D\	.	.	16f# 16A/	.	16ddd\	.	.	.	.	.	.	.	.	.	.	.
.	.	.	16f#JJ 16A/	.	16ddd\	.	.	.	.	.	.	.	.	.	.	.
8B\	.	.	16f#LL 16d/	.	16ddd\	.	4B\	pro	8d\	-ra	8a\	-ra	8ff#\	-ra	4dd\	4ff#\
.	.	.	16f# 16d/	.	16ddd\	.	.	.	.	.	.	.	.	.	.	.
8B\J	.	.	16f# 16d/	.	16ddd\	.	.	.	8d\	pro	8a\	pro	8ff#\	pro	.	.
.	.	.	16f#JJ 16d/	.	16ddd\JJ	.	.	.	.	.	.	.	.	.	.	.
8G\L	.	.	16eLL 16B/	.	16dddLL 16ee\	.	4G\	no-	4e\	no-	4b\	no-	4gg\	no-	4ee\	4gg\
.	.	.	16e 16B/	.	16ddd 16ee\	.	.	.	.	.	.	.	.	.	.	.
8G\	.	.	16e 16B/	.	16ddd 16ee\	.	.	.	.	.	.	.	.	.	.	.
.	.	.	16eJJ 16B/	.	16dddJJ 16ee\	.	.	.	.	.	.	.	.	.	.	.
8A\	.	.	16gLL 16A/	.	16ccc#LL 16ee\	.	4A\	-bis	4c#\	-bis	4a\	-bis	4ee\	-bis	4a\	4ee\
.	.	.	16g 16A/	.	16ccc# 16ee\	.	.	.	.	.	.	.	.	.	.	.
8A\J	.	.	16g 16A/	.	16ccc# 16ee\	.	.	.	.	.	.	.	.	.	.	.
.	.	.	16gJJ 16A/	.	16ccc#JJ 16ee\	.	.	.	.	.	.	.	.	.	.	.
*	*	*	*	*	*Xtremolo	*	*	*	*	*	*	*	*	*	*	*
=62	=62	=62	=62	=62	=62	=62	=62	=62	=62	=62	=62	=62	=62	=62	=62	=62
!	!	!	!	!	!LO:TX:t=P:problem:t.62-65 zapisane repetycją	!	!	!	!	!	!	!	!	!	!LO:TX:t=P:problem:t. 62-65 zapisane repetycją	!LO:TX:t=P:problem:t. 62-65 zapisane repetycją
8D/L	.	.	16f#LL 16A/	.	16ddd\LLyy	.	4d\	O-	4d\	O-	4a\	O-	4ff#\	O-	4dd\yy	4ff#\yy
.	.	.	16f# 16A/	.	16ddd\yy	.	.	.	.	.	.	.	.	.	.	.
8AA/	.	.	16f# 16A/	.	16aa\yy	.	.	.	.	.	.	.	.	.	.	.
.	.	.	16f#JJ 16A/	.	16aa\JJyy	.	.	.	.	.	.	.	.	.	.	.
8E/	.	.	16gLL 16A/	.	16ccc#\LLyy	.	4A\	-ra	8e\L	-ra	4a\	-ra	8gg\L	-ra	8ee\Lyy	8gg\Lyy
.	.	.	16g 16A/	.	16ccc#\yy	.	.	.	.	.	.	.	.	.	.	.
8AA/J	.	.	16g 16A/	.	16aa\yy	.	.	.	8c#\J	.	.	.	8ee\J	.	8a\Jyy	8ee\Jyy
.	.	.	16gJJ 16A/	.	16aa\JJyy	.	.	.	.	.	.	.	.	.	.	.
*	*	*	*	*	*	*	*	*ij	*	*ij	*	*ij	*	*	*	*
8D/L	.	.	16f#LL 16A/	.	16ddd\LLyy	.	4d\	O-	4d\	O-	4a\	O-	4ff#\	O-	4dd\yy	4ff#\yy
.	.	.	16f# 16A/	.	16ddd\yy	.	.	.	.	.	.	.	.	.	.	.
8AA/	.	.	16f# 16A/	.	16aa\yy	.	.	.	.	.	.	.	.	.	.	.
.	.	.	16f#JJ 16A/	.	16aa\JJyy	.	.	.	.	.	.	.	.	.	.	.
8E/	.	.	16gLL 16A/	.	16ccc#\LLyy	.	4A\	-ra	8e\L	-ra	4a\	-ra	8gg\L	-ra	8ee\Lyy	8gg\Lyy
.	.	.	16g 16A/	.	16ccc#\yy	.	.	.	.	.	.	.	.	.	.	.
8AA/J	.	.	16g 16A/	.	16aa\yy	.	.	.	8c#\J	.	.	.	8ee\J	.	8a\Jyy	8ee\J
.	.	.	16gJJ 16A/	.	16aa\JJyy	.	.	.	.	.	.	.	.	.	.	.
=63	=63	=63	=63	=63	=63	=63	=63	=63	=63	=63	=63	=63	=63	=63	=63	=63
!!LO:TX:t=P:problem:niepotrzebnie powtórzony takt w B
1ryy	.	.	1ryy	.	1ryy	.	4d\	O-	1ryy	.	1ryy	.	1ryy	.	1ryy	1ryy
.	.	.	.	.	.	.	4A\	-ra	.	.	.	.	.	.	.	.
*	*	*	*	*	*	*	*	*Xij	*	*	*	*	*	*	*	*
.	.	.	.	.	.	.	4d\	O-	.	.	.	.	.	.	.	.
.	.	.	.	.	.	.	4A\	.	.	.	.	.	.	.	.	.
!	!	!	!	!	!	!	!LO:LB:g=original	!	!	!	!	!	!	!	!	!
=64	=64	=64	=64	=64	=64	=64	=64	=64	=64	=64	=64	=64	=64	=64	=64	=64
!	!	!	!LO:TX:t=P:problem:t. 64-66 zapisane repetycją	!	!	!	!	!	!	!	!	!	!	!	!	!
8D/L	.	.	16f#LLyy 16A/yy	.	16ddd\LLyy	.	4d\	-ra	4d\	O-	4a\	O-	4ff#\	O-	4dd\yy	4ff#\yy
.	.	.	16f#yy 16A/yy	.	16ddd\yy	.	.	.	.	.	.	.	.	.	.	.
8AA/	.	.	16f#yy 16A/yy	.	16aa\yy	.	.	.	.	.	.	.	.	.	.	.
.	.	.	16f#JJyy 16A/yy	.	16aa\JJyy	.	.	.	.	.	.	.	.	.	.	.
8E/	.	.	16gLLyy 16A/yy	.	16ccc#\LLyy	.	4B\	pro	8e\L	-ra	4a\	-ra	8gg\L	-ra	8ee\Lyy	8gg\Lyy
.	.	.	16gyy 16A/yy	.	16ccc#\yy	.	.	.	.	.	.	.	.	.	.	.
8AA/J	.	.	16gyy 16A/yy	.	16aa\yy	.	.	.	8c#\J	.	.	.	8ee\J	.	8a\Jyy	8ee\Jyy
.	.	.	16gJJyy 16A/yy	.	16aa\JJyy	.	.	.	.	.	.	.	.	.	.	.
8D/L	.	.	16f#LLyy 16A/yy	.	16ddd\LLyy	.	4G\	no-	4d\	O-	4a\	O-	4ff#\	O-	4dd\yy	4ff#\yy
.	.	.	16f#yy 16A/yy	.	16ddd\yy	.	.	.	.	.	.	.	.	.	.	.
8AA/	.	.	16f#yy 16A/yy	.	16aa\yy	.	.	.	.	.	.	.	.	.	.	.
.	.	.	16f#JJyy 16A/yy	.	16aa\JJyy	.	.	.	.	.	.	.	.	.	.	.
8E/	.	.	16gLLyy 16A/yy	.	16ccc#\LLyy	.	4A\	-bis	8e\L	-ra	4a\	-ra	8gg\L	-ra	8ee\Lyy	8gg\Lyy
*	*	*	*	*	*	*	*	*	*	*Xij	*	*Xij	*	*	*	*
.	.	.	16gyy 16A/yy	.	16ccc#\yy	.	.	.	.	.	.	.	.	.	.	.
8AA/J	.	.	16gyy 16A/yy	.	16aa\yy	.	.	.	8c#\J	.	.	.	8ee\J	.	8a\Jyy	8ee\Jyy
.	.	.	16gJJyy 16A/yy	.	16aa\JJyy	.	.	.	.	.	.	.	.	.	.	.
!	!	!	!	!	!	!	!	!	!	!	!	!	!LO:LB:g=original	!	!	!
=65	=65	=65	=65	=65	=65	=65	=65	=65	=65	=65	=65	=65	=65	=65	=65	=65
*	*	*	*	*	*tremolo	*	*	*	*	*	*	*	*	*	*	*
8D\L	.	.	16f#LLyy 16A/yy	.	16ddd\LLyy	.	4D/	ra	4d\	O-	4a\	O-	4ff#\	O-	4dd\yy	4ff#\yy
.	.	.	16f#yy 16A/yy	.	16ddd\yy	.	.	.	.	.	.	.	.	.	.	.
8D\	.	.	16f#yy 16A/yy	.	16ddd\yy	.	.	.	.	.	.	.	.	.	.	.
.	.	.	16f#JJyy 16A/yy	.	16ddd\yy	.	.	.	.	.	.	.	.	.	.	.
8B\	.	.	16f#LLyy 16d/yy	.	16ddd\yy	.	4B\	pro	8d\	-ra	8a\	-ra	8ff#\	-ra	4dd\yy	4ff#\yy
.	.	.	16f#yy 16d/yy	.	16ddd\yy	.	.	.	.	.	.	.	.	.	.	.
8B\J	.	.	16f#yy 16d/yy	.	16ddd\yy	.	.	.	8d\	pro	8a\	pro	8ff#\	pro	.	.
.	.	.	16f#JJyy 16d/yy	.	16ddd\JJyy	.	.	.	.	.	.	.	.	.	.	.
8G\L	.	.	16eLLyy 16B/yy	.	16dddLLyy 16ee\yy	.	4G\	no-	4e\	no-	4b\	no-	4gg\	no-	4ee\yy	4gg\yy
.	.	.	16eyy 16B/yy	.	16dddyy 16ee\yy	.	.	.	.	.	.	.	.	.	.	.
8G\	.	.	16eyy 16B/yy	.	16dddyy 16ee\yy	.	.	.	.	.	.	.	.	.	.	.
.	.	.	16eJJyy 16B/yy	.	16dddJJyy 16ee\yy	.	.	.	.	.	.	.	.	.	.	.
8A\	.	.	16gLLyy 16A/yy	.	16ccc#LLyy 16ee\yy	.	4A\	.	4c#\	-bis	4a\	-bis	4ee\	-bis	4a\yy	4ee\yy
.	.	.	16gyy 16A/yy	.	16ccc#yy 16ee\yy	.	.	.	.	.	.	.	.	.	.	.
8A\J	.	.	16gyy 16A/yy	.	16ccc#yy 16ee\yy	.	.	.	.	.	.	.	.	.	.	.
.	.	.	16gJJyy 16A/yy	.	16ccc#JJyy 16ee\yy	.	.	.	.	.	.	.	.	.	.	.
*	*	*	*	*	*Xtremolo	*	*	*	*	*	*	*	*	*	*	*
!	!	!	!	!	!	!	!	!	!LO:LB:g=original	!	!	!	!	!	!	!
=66	=66	=66	=66	=66	=66	=66	=66	=66	=66	=66	=66	=66	=66	=66	=66	=66
4D\	.	.	4f# 4A/	.	4ddd 4dd 4d\	.	4D/	-bis	4d\	O-	4a\	O-	4ff#\	O-	4dd\	4ff#\
4d\	.	.	4ff# 4a 4d/	.	4ddd 4dd 4d\	.	4d\	.	4d\	-ra	4a\	-ra	4ff#\	-ra	4f#/	4dd\
4A\	.	.	4ff# 4a 4d/	.	4ddd 4dd 4d\	.	4d\	pro	4d\	pro	4a\	pro	4ff#\	pro	4f#/	4a/
4F#\	.	.	4ff# 4a 4d/	.	4ddd 4dd 4d\	.	4d\	no-	4d\	no-	4a\	no-	4ff#\	no-	4d/	4f#/
=67	=67	=67	=67	=67	=67	=67	=67	=67	=67	=67	=67	=67	=67	=67	=67	=67
4D\	.	.	4ff# 4a 4d/	.	4ddd 4ff# 4dd 4d\	.	4d\	-bis	4d\	-bis	4a\	-bis	4ff#\	-bis	4d/	4d/
4r	.	.	4r	.	4r	.	4r	.	4r	.	4r	.	4r	.	4r	4r
!	!	!	!	!	!LO:TX:t=Agnus Volti.	!	!	!	!LO:TX:b:t=Agnus Verte	!	!	!	!	!	!	!
2r	.	.	2r	.	2r	.	2r	.	2r	.	2r	.	2r	.	2r	2r
==	==	==	==	==	==	==	==	==	==	==	==	==	==	==	==	==
*-	*-	*-	*-	*-	*-	*-	*-	*-	*-	*-	*-	*-	*-	*-	*-	*-
!!!system-decoration: [g1][g2][g3]g4
!!!RDF**kern: > = above
!!!RDF**kern: < = below
!!!ENC: Katarzyna Serwa
!!!END: 2021-11-25
!!!ENC: Berenika Jozajtis
!!!END: 2021-11-15
